;FLAVOR:UltiGCode
;FLAVOR:UltiGCode
;TIME:5430
;MATERIAL:7311
;MATERIAL2:0
;NOZZLE_DIAMETER:0.4
;Generated with Cura_SteamEngine 2.4.0

;LAYER_COUNT:28
;LAYER:0
M107
G10
G0 F3600 X104.258 Y56.822 Z0.3
;TYPE:SKIRT
G11
G1 F1800 X104.676 Y56.151 E0.09487
G1 X105.159 Y55.527 E0.18956
G1 X105.702 Y54.954 E0.28429
G1 X106.301 Y54.439 E0.37908
G1 X106.949 Y53.988 E0.47382
G1 X107.64 Y53.604 E0.56868
G1 X108.365 Y53.292 E0.6634
G1 X109.118 Y53.055 E0.75813
G1 X109.892 Y52.896 E0.85295
G1 X110.677 Y52.815 E0.94765
G1 X111.079 Y52.805 E0.9959
G1 X136.078 Y52.805 E3.99578
G1 X136.867 Y52.845 E4.09058
G1 X137.647 Y52.964 E4.18527
G1 X138.412 Y53.162 E4.28009
G1 X139.152 Y53.436 E4.37478
G1 X139.861 Y53.784 E4.46956
G1 X140.532 Y54.202 E4.56443
G1 X141.156 Y54.685 E4.65912
G1 X141.729 Y55.228 E4.75385
G1 X142.244 Y55.827 E4.84864
G1 X142.695 Y56.475 E4.94338
G1 X143.079 Y57.166 E5.03824
G1 X143.391 Y57.891 E5.13296
G1 X143.628 Y58.644 E5.22769
G1 X143.787 Y59.418 E5.32251
G1 X143.868 Y60.203 E5.41721
G1 X143.878 Y60.605 E5.46546
G1 X143.878 Y90.604 E9.06534
G1 X143.838 Y91.393 E9.16014
G1 X143.719 Y92.173 E9.25483
G1 X143.521 Y92.938 E9.34965
G1 X143.247 Y93.678 E9.44434
G1 X142.899 Y94.387 E9.53912
G1 X142.481 Y95.058 E9.63399
G1 X142.124 Y95.532 E9.70519
G1 X141.326 Y96.511 E9.85676
G1 X140.764 Y97.329 E9.97585
G1 X140.269 Y98.19 E10.09503
G1 X139.858 Y99.061 E10.2106
G1 X139.509 Y99.984 E10.32902
G1 X139.237 Y100.927 E10.44679
G1 X139.041 Y101.891 E10.56484
G1 X138.925 Y102.848 E10.68052
G1 X138.878 Y104.002 E10.81911
G1 X138.878 Y118.666 E12.57879
G1 X138.925 Y119.819 E12.71727
G1 X139.04 Y120.774 E12.83269
G1 X139.238 Y121.746 E12.95173
G1 X139.508 Y122.683 E13.06874
G1 X139.856 Y123.603 E13.18678
G1 X140.269 Y124.477 E13.30278
G1 X140.764 Y125.338 E13.42196
G1 X141.326 Y126.156 E13.54105
G1 X142.124 Y127.135 E13.69261
G1 X142.591 Y127.771 E13.7873
G1 X142.992 Y128.452 E13.88213
G1 X143.321 Y129.169 E13.9768
G1 X143.577 Y129.917 E14.07167
G1 X143.755 Y130.686 E14.16639
G1 X143.855 Y131.469 E14.26111
G1 X143.878 Y132.063 E14.33245
G1 X143.878 Y162.062 E17.93233
G1 X143.838 Y162.851 E18.02713
G1 X143.719 Y163.631 E18.12181
G1 X143.521 Y164.396 E18.21664
G1 X143.247 Y165.136 E18.31133
G1 X142.899 Y165.845 E18.40611
G1 X142.481 Y166.516 E18.50097
G1 X141.998 Y167.14 E18.59566
G1 X141.455 Y167.713 E18.69039
G1 X140.856 Y168.228 E18.78519
G1 X140.208 Y168.679 E18.87993
G1 X139.517 Y169.063 E18.97479
G1 X138.792 Y169.375 E19.0695
G1 X138.039 Y169.612 E19.16423
G1 X137.265 Y169.771 E19.25905
G1 X136.48 Y169.852 E19.35375
G1 X136.078 Y169.862 E19.40201
G1 X111.079 Y169.862 E22.40189
G1 X110.29 Y169.822 E22.49669
G1 X109.51 Y169.703 E22.59137
G1 X108.745 Y169.505 E22.6862
G1 X108.005 Y169.231 E22.78089
G1 X107.296 Y168.883 E22.87567
G1 X106.625 Y168.465 E22.97053
G1 X106.001 Y167.982 E23.06522
G1 X105.428 Y167.439 E23.15995
G1 X104.913 Y166.84 E23.25475
G1 X104.462 Y166.192 E23.34949
G1 X104.078 Y165.501 E23.44435
G1 X103.766 Y164.776 E23.53906
G1 X103.529 Y164.023 E23.63379
G1 X103.37 Y163.249 E23.72861
G1 X103.289 Y162.464 E23.82331
G1 X103.279 Y162.062 E23.87157
G1 X103.279 Y132.063 E27.47145
G1 X103.319 Y131.274 E27.56625
G1 X103.438 Y130.494 E27.66093
G1 X103.636 Y129.729 E27.75576
G1 X103.91 Y128.989 E27.85045
G1 X104.258 Y128.28 E27.94523
G1 X104.676 Y127.609 E28.04009
G1 X105.022 Y127.148 E28.10926
G1 X105.833 Y126.148 E28.26376
G1 X106.396 Y125.332 E28.38273
G1 X106.88 Y124.489 E28.49938
G1 X107.303 Y123.594 E28.61817
G1 X107.647 Y122.684 E28.73491
G1 X107.919 Y121.742 E28.85257
G1 X108.117 Y120.774 E28.97113
G1 X108.232 Y119.819 E29.08656
G1 X108.278 Y118.672 E29.22431
G1 X108.278 Y103.994 E30.98567
G1 X108.232 Y102.847 E31.12342
G1 X108.117 Y101.895 E31.23849
G1 X107.919 Y100.923 E31.35753
G1 X107.646 Y99.977 E31.47568
G1 X107.306 Y99.078 E31.59102
G1 X106.881 Y98.18 E31.71024
G1 X106.39 Y97.324 E31.82865
G1 X105.831 Y96.512 E31.94695
G1 X105.031 Y95.529 E32.09904
G1 X104.564 Y94.893 E32.19372
G1 X104.164 Y94.212 E32.2885
G1 X103.834 Y93.494 E32.38332
G1 X103.579 Y92.747 E32.47804
G1 X103.401 Y91.977 E32.57288
G1 X103.301 Y91.194 E32.6676
G1 X103.279 Y90.604 E32.73845
G1 X103.279 Y60.605 E36.33833
G1 X103.319 Y59.816 E36.43313
G1 X103.438 Y59.036 E36.52782
G1 X103.636 Y58.271 E36.62264
G1 X103.91 Y57.531 E36.71733
G1 X104.258 Y56.822 E36.81211
G0 F3600 X104.657 Y56.929
G1 F1800 X105.073 Y56.282 E36.90441
G1 X105.554 Y55.682 E36.99669
G1 X106.095 Y55.135 E37.08901
G1 X106.69 Y54.647 E37.18136
G1 X107.332 Y54.224 E37.27362
G1 X108.015 Y53.869 E37.36599
G1 X108.73 Y53.588 E37.45817
G1 X109.472 Y53.382 E37.55058
G1 X110.23 Y53.254 E37.64283
G1 X111.079 Y53.205 E37.74488
G1 X136.078 Y53.205 E40.74476
G1 X136.846 Y53.245 E40.83704
G1 X137.606 Y53.364 E40.92935
G1 X138.349 Y53.562 E41.02163
G1 X139.068 Y53.836 E41.11396
G1 X139.754 Y54.183 E41.20621
G1 X140.401 Y54.599 E41.29852
G1 X141.001 Y55.08 E41.3908
G1 X141.548 Y55.621 E41.48312
G1 X142.036 Y56.216 E41.57546
G1 X142.459 Y56.858 E41.66772
G1 X142.814 Y57.541 E41.76009
G1 X143.095 Y58.256 E41.85228
G1 X143.301 Y58.998 E41.94468
G1 X143.429 Y59.756 E42.03693
G1 X143.478 Y60.605 E42.13898
G1 X143.478 Y90.604 E45.73886
G1 X143.438 Y91.372 E45.83115
G1 X143.319 Y92.132 E45.92346
G1 X143.121 Y92.875 E46.01573
G1 X142.847 Y93.594 E46.10806
G1 X142.5 Y94.28 E46.20031
G1 X142.084 Y94.927 E46.29262
G1 X141.814 Y95.28 E46.34595
G1 X140.998 Y96.281 E46.50092
G1 X140.425 Y97.115 E46.62235
G1 X139.921 Y97.993 E46.74383
G1 X139.487 Y98.912 E46.86579
G1 X139.126 Y99.865 E46.98808
G1 X138.85 Y100.824 E47.10783
G1 X138.646 Y101.825 E47.23042
G1 X138.525 Y102.821 E47.35082
G1 X138.478 Y103.986 E47.49073
G1 X138.478 Y118.682 E49.25425
G1 X138.525 Y119.847 E49.39417
G1 X138.645 Y120.839 E49.51408
G1 X138.849 Y121.837 E49.63631
G1 X139.13 Y122.813 E49.75819
G1 X139.485 Y123.752 E49.87865
G1 X139.921 Y124.674 E50.00104
G1 X140.425 Y125.552 E50.12253
G1 X140.998 Y126.386 E50.24395
G1 X141.814 Y127.387 E50.39892
G1 X142.268 Y128.008 E50.49124
G1 X142.656 Y128.673 E50.58363
G1 X142.972 Y129.374 E50.6759
G1 X143.214 Y130.104 E50.76819
G1 X143.379 Y130.855 E50.86045
G1 X143.465 Y131.619 E50.95271
G1 X143.478 Y132.063 E51.00602
G1 X143.478 Y162.062 E54.6059
G1 X143.438 Y162.83 E54.69818
G1 X143.319 Y163.59 E54.79049
G1 X143.121 Y164.333 E54.88276
G1 X142.847 Y165.052 E54.9751
G1 X142.5 Y165.738 E55.06735
G1 X142.084 Y166.385 E55.15965
G1 X141.603 Y166.985 E55.25193
G1 X141.062 Y167.532 E55.34425
G1 X140.467 Y168.02 E55.4366
G1 X139.825 Y168.443 E55.52886
G1 X139.142 Y168.798 E55.62123
G1 X138.427 Y169.079 E55.71341
G1 X137.685 Y169.285 E55.80582
G1 X136.927 Y169.413 E55.89807
G1 X136.078 Y169.462 E56.00012
G1 X111.079 Y169.462 E59
G1 X110.311 Y169.422 E59.09228
G1 X109.551 Y169.303 E59.1846
G1 X108.808 Y169.105 E59.27687
G1 X108.089 Y168.831 E59.3692
G1 X107.403 Y168.484 E59.46145
G1 X106.756 Y168.068 E59.55376
G1 X106.156 Y167.587 E59.64604
G1 X105.609 Y167.046 E59.73836
G1 X105.121 Y166.451 E59.8307
G1 X104.698 Y165.809 E59.92296
G1 X104.343 Y165.126 E60.01533
G1 X104.062 Y164.411 E60.10752
G1 X103.856 Y163.669 E60.19993
G1 X103.728 Y162.911 E60.29217
G1 X103.679 Y162.062 E60.39422
G1 X103.679 Y132.063 E63.9941
G1 X103.719 Y131.295 E64.08639
G1 X103.838 Y130.535 E64.1787
G1 X104.036 Y129.792 E64.27097
G1 X104.31 Y129.073 E64.3633
G1 X104.657 Y128.387 E64.45556
G1 X105.073 Y127.74 E64.54786
G1 X105.333 Y127.4 E64.59922
G1 X106.149 Y126.394 E64.75466
G1 X106.737 Y125.543 E64.87879
G1 X107.237 Y124.671 E64.99941
G1 X107.669 Y123.758 E65.12061
G1 X108.027 Y122.81 E65.24222
G1 X108.309 Y121.833 E65.36424
G1 X108.512 Y120.839 E65.48598
G1 X108.632 Y119.847 E65.60589
G1 X108.678 Y118.688 E65.74508
G1 X108.678 Y103.978 E67.51028
G1 X108.632 Y102.819 E67.64947
G1 X108.512 Y101.83 E67.76902
G1 X108.309 Y100.832 E67.89123
G1 X108.025 Y99.851 E68.01379
G1 X107.671 Y98.913 E68.1341
G1 X107.236 Y97.993 E68.25622
G1 X106.738 Y97.125 E68.3763
G1 X106.148 Y96.269 E68.50106
G1 X105.341 Y95.277 E68.65451
G1 X104.887 Y94.656 E68.74682
G1 X104.5 Y93.991 E68.83915
G1 X104.184 Y93.29 E68.93142
G1 X103.942 Y92.56 E69.02371
G1 X103.778 Y91.808 E69.11607
G1 X103.692 Y91.044 E69.20833
G1 X103.679 Y90.604 E69.26116
G1 X103.679 Y60.605 E72.86104
G1 X103.719 Y59.837 E72.95332
G1 X103.838 Y59.077 E73.04563
G1 X104.036 Y58.334 E73.1379
G1 X104.31 Y57.615 E73.23024
G1 X104.657 Y56.929 E73.32249
G0 F3600 X105.056 Y57.039
G1 F1800 X105.471 Y56.416 E73.41232
G1 X105.95 Y55.842 E73.50203
G1 X106.487 Y55.321 E73.59181
G1 X107.077 Y54.862 E73.68152
G1 X107.713 Y54.467 E73.77136
G1 X108.387 Y54.143 E73.8611
G1 X109.092 Y53.893 E73.95086
G1 X109.82 Y53.719 E74.04068
G1 X110.562 Y53.624 E74.13045
G1 X111.079 Y53.605 E74.19253
G1 X136.078 Y53.605 E77.19241
G1 X136.825 Y53.645 E77.28218
G1 X137.563 Y53.764 E77.37188
G1 X138.285 Y53.962 E77.46172
G1 X138.981 Y54.235 E77.55143
G1 X139.644 Y54.582 E77.64123
G1 X140.267 Y54.997 E77.73106
G1 X140.841 Y55.476 E77.82077
G1 X141.362 Y56.013 E77.91056
G1 X141.821 Y56.603 E78.00026
G1 X142.216 Y57.239 E78.0901
G1 X142.54 Y57.913 E78.17984
G1 X142.79 Y58.618 E78.2696
G1 X142.964 Y59.346 E78.35942
G1 X143.059 Y60.088 E78.44919
G1 X143.078 Y60.605 E78.51127
G1 X143.078 Y90.604 E82.11115
G1 X143.038 Y91.351 E82.20092
G1 X142.919 Y92.089 E82.29062
G1 X142.721 Y92.811 E82.38046
G1 X142.448 Y93.507 E82.47018
G1 X142.101 Y94.17 E82.55998
G1 X141.504 Y95.027 E82.68531
G1 X140.685 Y96.031 E82.84079
G1 X140.081 Y96.912 E82.96897
G1 X139.566 Y97.806 E83.09278
G1 X139.115 Y98.763 E83.21973
G1 X138.75 Y99.728 E83.34354
G1 X138.46 Y100.733 E83.46906
G1 X138.251 Y101.758 E83.59459
G1 X138.126 Y102.795 E83.71993
G1 X138.078 Y103.969 E83.86093
G1 X138.078 Y118.698 E85.62841
G1 X138.126 Y119.874 E85.76965
G1 X138.251 Y120.906 E85.89439
G1 X138.461 Y121.94 E86.021
G1 X138.747 Y122.932 E86.14489
G1 X139.116 Y123.907 E86.26999
G1 X139.566 Y124.861 E86.39657
G1 X140.081 Y125.755 E86.52037
G1 X140.685 Y126.636 E86.64855
G1 X141.504 Y127.64 E86.80404
G1 X141.945 Y128.244 E86.89378
G1 X142.319 Y128.892 E86.98356
G1 X142.621 Y129.576 E87.07329
G1 X142.849 Y130.289 E87.16311
G1 X143 Y131.022 E87.25292
G1 X143.078 Y132.063 E87.37819
G1 X143.078 Y162.062 E90.97807
G1 X143.038 Y162.809 E91.06784
G1 X142.919 Y163.547 E91.15754
G1 X142.721 Y164.269 E91.24738
G1 X142.448 Y164.965 E91.3371
G1 X142.101 Y165.628 E91.4269
G1 X141.686 Y166.251 E91.51672
G1 X141.207 Y166.825 E91.60644
G1 X140.67 Y167.346 E91.69622
G1 X140.08 Y167.805 E91.78592
G1 X139.444 Y168.2 E91.87576
G1 X138.77 Y168.524 E91.9655
G1 X138.065 Y168.774 E92.05527
G1 X137.337 Y168.948 E92.14509
G1 X136.595 Y169.043 E92.23485
G1 X136.078 Y169.062 E92.29694
G1 X111.079 Y169.062 E95.29682
G1 X110.332 Y169.022 E95.38658
G1 X109.594 Y168.903 E95.47629
G1 X108.872 Y168.705 E95.56613
G1 X108.176 Y168.432 E95.65584
G1 X107.513 Y168.085 E95.74564
G1 X106.89 Y167.67 E95.83547
G1 X106.316 Y167.191 E95.92518
G1 X105.795 Y166.654 E96.01497
G1 X105.336 Y166.064 E96.10467
G1 X104.941 Y165.428 E96.19451
G1 X104.617 Y164.754 E96.28425
G1 X104.367 Y164.049 E96.37401
G1 X104.193 Y163.321 E96.46383
G1 X104.098 Y162.579 E96.5536
G1 X104.079 Y162.062 E96.61568
G1 X104.079 Y132.063 E100.21556
G1 X104.119 Y131.316 E100.30533
G1 X104.238 Y130.578 E100.39503
G1 X104.436 Y129.856 E100.48487
G1 X104.709 Y129.16 E100.57459
G1 X105.056 Y128.497 E100.66438
G1 X105.643 Y127.653 E100.78775
G1 X106.466 Y126.639 E100.94447
G1 X107.077 Y125.753 E101.07362
G1 X107.594 Y124.852 E101.19827
G1 X108.039 Y123.912 E101.32307
G1 X108.408 Y122.936 E101.44828
G1 X108.696 Y121.936 E101.57316
G1 X108.906 Y120.906 E101.6993
G1 X109.031 Y119.874 E101.82405
G1 X109.078 Y118.704 E101.96456
G1 X109.078 Y103.962 E103.7336
G1 X109.031 Y102.792 E103.87412
G1 X108.907 Y101.763 E103.99849
G1 X108.696 Y100.729 E104.12513
G1 X108.409 Y99.736 E104.24916
G1 X108.036 Y98.749 E104.37578
G1 X107.593 Y97.811 E104.50026
G1 X107.073 Y96.906 E104.62551
G1 X106.472 Y96.032 E104.75279
G1 X105.651 Y95.024 E104.9088
G1 X105.21 Y94.42 E104.99854
G1 X104.837 Y93.772 E105.08827
G1 X104.534 Y93.087 E105.17815
G1 X104.307 Y92.375 E105.26783
G1 X104.156 Y91.642 E105.35763
G1 X104.079 Y90.604 E105.48253
G1 X104.079 Y60.605 E109.08241
G1 X104.119 Y59.858 E109.17218
G1 X104.238 Y59.12 E109.26189
G1 X104.436 Y58.398 E109.35173
G1 X104.709 Y57.702 E109.44144
G1 X105.056 Y57.039 E109.53124
G0 F3600 X105.454 Y57.152
G1 F1800 X105.868 Y56.555 E109.61842
G1 X106.344 Y56.007 E109.70552
G1 X106.878 Y55.514 E109.79274
G1 X107.463 Y55.084 E109.87986
G1 X108.092 Y54.72 E109.96707
G1 X108.757 Y54.427 E110.05427
G1 X109.45 Y54.209 E110.14145
G1 X110.162 Y54.069 E110.22852
G1 X111.079 Y54.005 E110.33883
G1 X136.078 Y54.005 E113.33871
G1 X136.803 Y54.045 E113.42584
G1 X137.52 Y54.164 E113.51306
G1 X138.219 Y54.362 E113.60024
G1 X138.892 Y54.635 E113.68739
G1 X139.531 Y54.98 E113.77453
G1 X140.128 Y55.394 E113.86172
G1 X140.676 Y55.87 E113.94882
G1 X141.169 Y56.404 E114.03603
G1 X141.599 Y56.989 E114.12316
G1 X141.963 Y57.618 E114.21036
G1 X142.256 Y58.283 E114.29757
G1 X142.474 Y58.976 E114.38474
G1 X142.614 Y59.688 E114.47182
G1 X142.678 Y60.605 E114.58213
G1 X142.678 Y90.604 E118.18201
G1 X142.638 Y91.329 E118.26914
G1 X142.519 Y92.046 E118.35636
G1 X142.321 Y92.745 E118.44354
G1 X142.048 Y93.418 E118.53069
G1 X141.703 Y94.057 E118.61783
G1 X141.194 Y94.774 E118.72335
G1 X140.362 Y95.795 E118.8814
G1 X139.745 Y96.693 E119.01214
G1 X139.209 Y97.625 E119.14116
G1 X138.749 Y98.599 E119.27042
G1 X138.37 Y99.602 E119.39908
G1 X138.07 Y100.642 E119.52897
G1 X137.856 Y101.692 E119.65756
G1 X137.728 Y102.756 E119.78616
G1 X137.678 Y103.978 E119.93292
G1 X137.678 Y118.69 E121.69836
G1 X137.728 Y119.913 E121.84525
G1 X137.856 Y120.972 E121.97325
G1 X138.072 Y122.031 E122.10295
G1 X138.368 Y123.058 E122.2312
G1 X138.751 Y124.071 E122.36116
G1 X139.209 Y125.042 E122.48999
G1 X139.745 Y125.974 E122.61901
G1 X140.362 Y126.872 E122.74976
G1 X141.194 Y127.893 E122.9078
G1 X141.621 Y128.48 E122.99491
G1 X141.981 Y129.111 E123.08208
G1 X142.27 Y129.778 E123.16932
G1 X142.483 Y130.472 E123.25643
G1 X142.619 Y131.185 E123.34353
G1 X142.678 Y132.063 E123.44913
G1 X142.678 Y162.062 E127.04901
G1 X142.638 Y162.787 E127.13614
G1 X142.519 Y163.504 E127.22336
G1 X142.321 Y164.203 E127.31054
G1 X142.048 Y164.876 E127.39769
G1 X141.703 Y165.515 E127.48483
G1 X141.289 Y166.112 E127.57201
G1 X140.813 Y166.66 E127.65912
G1 X140.279 Y167.153 E127.74633
G1 X139.694 Y167.583 E127.83345
G1 X139.065 Y167.947 E127.92066
G1 X138.4 Y168.24 E128.00786
G1 X137.707 Y168.458 E128.09504
G1 X136.995 Y168.598 E128.18212
G1 X136.078 Y168.662 E128.29243
G1 X111.079 Y168.662 E131.29231
G1 X110.354 Y168.622 E131.37944
G1 X109.637 Y168.503 E131.46665
G1 X108.938 Y168.305 E131.55384
G1 X108.265 Y168.032 E131.64099
G1 X107.626 Y167.687 E131.72813
G1 X107.029 Y167.273 E131.81531
G1 X106.481 Y166.797 E131.90241
G1 X105.988 Y166.263 E131.98963
G1 X105.558 Y165.678 E132.07675
G1 X105.194 Y165.049 E132.16396
G1 X104.901 Y164.384 E132.25116
G1 X104.683 Y163.691 E132.33834
G1 X104.543 Y162.979 E132.42541
G1 X104.479 Y162.062 E132.53572
G1 X104.479 Y132.063 E136.1356
G1 X104.519 Y131.338 E136.22273
G1 X104.638 Y130.621 E136.30995
G1 X104.836 Y129.922 E136.39713
G1 X105.109 Y129.249 E136.48428
G1 X105.454 Y128.61 E136.57142
G1 X105.954 Y127.905 E136.67514
G1 X106.787 Y126.879 E136.83373
G1 X107.414 Y125.97 E136.96624
G1 X107.946 Y125.044 E137.0944
G1 X108.41 Y124.061 E137.22484
G1 X108.786 Y123.066 E137.35248
G1 X109.086 Y122.027 E137.48225
G1 X109.301 Y120.972 E137.61145
G1 X109.429 Y119.913 E137.73946
G1 X109.478 Y118.695 E137.88574
G1 X109.478 Y103.971 E139.65262
G1 X109.429 Y102.753 E139.79889
G1 X109.302 Y101.697 E139.92653
G1 X109.085 Y100.635 E140.0566
G1 X108.788 Y99.606 E140.18512
G1 X108.407 Y98.6 E140.31421
G1 X107.944 Y97.62 E140.44427
G1 X107.414 Y96.696 E140.5721
G1 X106.794 Y95.795 E140.70334
G1 X105.961 Y94.772 E140.86165
G1 X105.534 Y94.184 E140.94886
G1 X105.174 Y93.553 E141.03603
G1 X104.886 Y92.886 E141.12322
G1 X104.673 Y92.192 E141.21033
G1 X104.537 Y91.478 E141.29755
G1 X104.479 Y90.604 E141.40266
G1 X104.479 Y60.605 E145.00254
G1 X104.519 Y59.88 E145.08967
G1 X104.638 Y59.163 E145.17689
G1 X104.836 Y58.464 E145.26407
G1 X105.109 Y57.791 E145.35122
G1 X105.454 Y57.152 E145.43836
G0 F3600 X105.853 Y57.27
G1 F1800 X106.264 Y56.699 E145.52279
G1 X106.738 Y56.178 E145.60731
G1 X107.268 Y55.714 E145.69184
G1 X107.847 Y55.314 E145.77629
G1 X108.468 Y54.982 E145.86079
G1 X109.122 Y54.722 E145.94524
G1 X109.802 Y54.538 E146.02978
G1 X110.498 Y54.432 E146.11426
G1 X111.079 Y54.405 E146.18406
G1 X136.078 Y54.405 E149.18394
G1 X136.781 Y54.445 E149.26843
G1 X137.475 Y54.564 E149.35293
G1 X138.15 Y54.762 E149.43734
G1 X138.799 Y55.034 E149.52178
G1 X139.413 Y55.379 E149.6063
G1 X139.984 Y55.79 E149.69072
G1 X140.505 Y56.264 E149.77525
G1 X140.969 Y56.794 E149.85978
G1 X141.369 Y57.373 E149.94422
G1 X141.701 Y57.994 E150.02872
G1 X141.961 Y58.648 E150.11318
G1 X142.145 Y59.328 E150.19771
G1 X142.251 Y60.024 E150.2822
G1 X142.278 Y60.605 E150.35199
G1 X142.278 Y90.604 E153.95187
G1 X142.238 Y91.307 E154.03637
G1 X142.119 Y92.001 E154.12086
G1 X141.921 Y92.676 E154.20528
G1 X141.649 Y93.325 E154.28972
G1 X141.304 Y93.939 E154.37423
G1 X140.884 Y94.521 E154.46036
G1 X140.042 Y95.553 E154.62019
G1 X139.402 Y96.485 E154.75586
G1 X138.861 Y97.428 E154.88632
G1 X138.378 Y98.45 E155.02197
G1 X137.989 Y99.48 E155.15409
G1 X137.682 Y100.542 E155.28675
G1 X137.462 Y101.625 E155.41936
G1 X137.328 Y102.729 E155.55281
G1 X137.278 Y103.962 E155.70089
G1 X137.278 Y118.706 E157.47017
G1 X137.328 Y119.94 E157.61838
G1 X137.461 Y121.038 E157.7511
G1 X137.681 Y122.119 E157.88348
G1 X137.99 Y123.192 E158.01747
G1 X138.38 Y124.221 E158.14952
G1 X138.861 Y125.239 E158.28463
G1 X139.402 Y126.182 E158.41509
G1 X140.042 Y127.114 E158.55076
G1 X140.884 Y128.146 E158.71059
G1 X141.297 Y128.716 E158.79506
G1 X141.643 Y129.329 E158.87953
G1 X141.917 Y129.977 E158.96395
G1 X142.115 Y130.653 E159.04848
G1 X142.236 Y131.346 E159.1329
G1 X142.278 Y132.063 E159.21909
G1 X142.278 Y162.062 E162.81897
G1 X142.238 Y162.765 E162.90346
G1 X142.119 Y163.459 E162.98796
G1 X141.921 Y164.134 E163.07237
G1 X141.649 Y164.783 E163.15682
G1 X141.304 Y165.397 E163.24133
G1 X140.893 Y165.968 E163.32575
G1 X140.419 Y166.489 E163.41028
G1 X139.889 Y166.953 E163.49481
G1 X139.31 Y167.353 E163.57925
G1 X138.689 Y167.685 E163.66376
G1 X138.035 Y167.945 E163.74821
G1 X137.355 Y168.129 E163.83274
G1 X136.659 Y168.235 E163.91723
G1 X136.078 Y168.262 E163.98702
G1 X111.079 Y168.262 E166.9869
G1 X110.376 Y168.222 E167.0714
G1 X109.682 Y168.103 E167.15589
G1 X109.007 Y167.905 E167.24031
G1 X108.358 Y167.633 E167.32475
G1 X107.744 Y167.288 E167.40927
G1 X107.173 Y166.877 E167.49369
G1 X106.652 Y166.403 E167.57821
G1 X106.188 Y165.873 E167.66274
G1 X105.788 Y165.294 E167.74719
G1 X105.456 Y164.673 E167.83169
G1 X105.196 Y164.019 E167.91615
G1 X105.012 Y163.339 E168.00068
G1 X104.906 Y162.643 E168.08516
G1 X104.879 Y162.062 E168.15496
G1 X104.879 Y132.063 E171.75484
G1 X104.919 Y131.36 E171.83933
G1 X105.038 Y130.666 E171.92383
G1 X105.236 Y129.991 E172.00824
G1 X105.508 Y129.342 E172.09269
G1 X105.853 Y128.728 E172.1772
G1 X106.264 Y128.157 E172.26163
G1 X107.115 Y127.108 E172.42372
G1 X107.753 Y126.184 E172.55846
G1 X108.3 Y125.231 E172.69032
G1 X108.776 Y124.225 E172.82387
G1 X109.166 Y123.192 E172.95637
G1 X109.476 Y122.119 E173.0904
G1 X109.696 Y121.038 E173.22278
G1 X109.829 Y119.94 E173.3555
G1 X109.878 Y118.711 E173.5031
G1 X109.878 Y103.955 E175.27382
G1 X109.829 Y102.726 E175.42142
G1 X109.696 Y101.63 E175.5539
G1 X109.475 Y100.546 E175.68666
G1 X109.167 Y99.48 E175.81981
G1 X108.773 Y98.436 E175.95371
G1 X108.301 Y97.438 E176.08619
G1 X107.753 Y96.484 E176.21821
G1 X107.113 Y95.553 E176.35379
G1 X106.271 Y94.519 E176.5138
G1 X105.859 Y93.949 E176.5982
G1 X105.513 Y93.335 E176.68277
G1 X105.239 Y92.687 E176.7672
G1 X105.041 Y92.011 E176.85173
G1 X104.92 Y91.318 E176.93614
G1 X104.879 Y90.604 E177.02197
G1 X104.879 Y60.605 E180.62185
G1 X104.919 Y59.902 E180.70634
G1 X105.038 Y59.208 E180.79084
G1 X105.236 Y58.533 E180.87525
G1 X105.508 Y57.884 E180.95969
G1 X105.853 Y57.27 E181.04421
G0 F3600 X106.251 Y57.391
G1 F1800 X106.661 Y56.847 E181.12595
G1 X107.132 Y56.356 E181.2076
G1 X107.657 Y55.922 E181.28934
G1 X108.229 Y55.553 E181.37102
G1 X108.841 Y55.254 E181.45276
G1 X109.483 Y55.029 E181.53439
G1 X110.148 Y54.88 E181.61617
G1 X111.079 Y54.805 E181.72825
G1 X136.078 Y54.805 E184.72813
G1 X136.758 Y54.845 E184.80987
G1 X137.428 Y54.964 E184.89153
G1 X138.08 Y55.161 E184.97326
G1 X138.704 Y55.433 E185.05495
G1 X139.292 Y55.777 E185.1367
G1 X139.836 Y56.187 E185.21844
G1 X140.327 Y56.658 E185.30009
G1 X140.761 Y57.183 E185.38183
G1 X141.13 Y57.755 E185.46351
G1 X141.429 Y58.367 E185.54525
G1 X141.654 Y59.009 E185.62688
G1 X141.803 Y59.674 E185.70866
G1 X141.878 Y60.605 E185.82074
G1 X141.878 Y90.604 E189.42062
G1 X141.838 Y91.284 E189.50236
G1 X141.719 Y91.954 E189.58402
G1 X141.522 Y92.606 E189.66575
G1 X141.25 Y93.23 E189.74744
G1 X140.906 Y93.818 E189.82919
G1 X140.574 Y94.269 E189.89639
G1 X139.715 Y95.323 E190.05955
G1 X139.073 Y96.257 E190.19556
G1 X138.499 Y97.256 E190.33382
G1 X138.013 Y98.286 E190.47049
G1 X137.609 Y99.354 E190.60751
G1 X137.293 Y100.449 E190.74427
G1 X137.067 Y101.562 E190.88056
G1 X136.928 Y102.702 E191.01837
G1 X136.878 Y103.946 E191.16777
G1 X136.878 Y118.722 E192.94089
G1 X136.928 Y119.967 E193.09041
G1 X137.066 Y121.105 E193.22797
G1 X137.294 Y122.222 E193.36477
G1 X137.607 Y123.307 E193.50028
G1 X138.014 Y124.385 E193.63856
G1 X138.499 Y125.411 E193.77474
G1 X139.073 Y126.41 E193.913
G1 X139.715 Y127.344 E194.049
G1 X140.574 Y128.398 E194.21217
G1 X140.972 Y128.95 E194.29383
G1 X141.303 Y129.545 E194.37553
G1 X141.562 Y130.175 E194.45727
G1 X141.746 Y130.831 E194.53903
G1 X141.851 Y131.504 E194.62077
G1 X141.878 Y132.063 E194.68793
G1 X141.878 Y162.062 E198.28781
G1 X141.838 Y162.742 E198.36955
G1 X141.719 Y163.412 E198.45121
G1 X141.522 Y164.064 E198.53294
G1 X141.25 Y164.688 E198.61462
G1 X140.906 Y165.276 E198.69637
G1 X140.496 Y165.82 E198.77812
G1 X140.025 Y166.311 E198.85976
G1 X139.5 Y166.745 E198.9415
G1 X138.928 Y167.114 E199.02319
G1 X138.316 Y167.413 E199.10492
G1 X137.674 Y167.638 E199.18656
G1 X137.009 Y167.787 E199.26833
G1 X136.078 Y167.862 E199.38042
G1 X111.079 Y167.862 E202.3803
G1 X110.399 Y167.822 E202.46204
G1 X109.729 Y167.703 E202.5437
G1 X109.077 Y167.506 E202.62543
G1 X108.453 Y167.234 E202.70711
G1 X107.865 Y166.89 E202.78886
G1 X107.321 Y166.48 E202.87061
G1 X106.83 Y166.009 E202.95225
G1 X106.396 Y165.484 E203.03399
G1 X106.027 Y164.912 E203.11568
G1 X105.728 Y164.3 E203.19741
G1 X105.503 Y163.658 E203.27905
G1 X105.354 Y162.993 E203.36082
G1 X105.279 Y162.062 E203.47291
G1 X105.279 Y132.063 E207.07279
G1 X105.319 Y131.383 E207.15453
G1 X105.438 Y130.713 E207.23619
G1 X105.635 Y130.061 E207.31792
G1 X105.907 Y129.437 E207.3996
G1 X106.251 Y128.849 E207.48135
G1 X106.575 Y128.409 E207.54692
G1 X107.431 Y127.354 E207.70995
G1 X108.094 Y126.394 E207.84996
G1 X108.657 Y125.413 E207.98568
G1 X109.141 Y124.389 E208.1216
G1 X109.55 Y123.307 E208.26041
G1 X109.863 Y122.222 E208.39592
G1 X110.091 Y121.105 E208.53272
G1 X110.229 Y119.967 E208.67028
G1 X110.278 Y118.727 E208.8192
G1 X110.278 Y103.939 E210.59376
G1 X110.229 Y102.699 E210.74267
G1 X110.091 Y101.564 E210.87987
G1 X109.863 Y100.443 E211.01715
G1 X109.547 Y99.35 E211.15368
G1 X109.149 Y98.297 E211.28877
G1 X108.654 Y97.251 E211.42763
G1 X108.086 Y96.261 E211.5646
G1 X107.431 Y95.309 E211.70326
G1 X106.582 Y94.266 E211.86465
G1 X106.183 Y93.714 E211.94638
G1 X105.853 Y93.119 E212.02803
G1 X105.594 Y92.489 E212.10976
G1 X105.411 Y91.833 E212.19149
G1 X105.306 Y91.161 E212.27311
G1 X105.279 Y90.604 E212.34003
G1 X105.279 Y60.605 E215.93991
G1 X105.319 Y59.925 E216.02165
G1 X105.438 Y59.255 E216.10331
G1 X105.635 Y58.603 E216.18504
G1 X105.907 Y57.979 E216.26672
G1 X106.251 Y57.391 E216.34847
G0 F3600 X106.649 Y57.517
G1 F1800 X107.057 Y57.002 E216.42732
G1 X107.524 Y56.54 E216.50615
G1 X108.044 Y56.139 E216.58494
G1 X108.608 Y55.803 E216.66372
G1 X109.21 Y55.539 E216.74261
G1 X109.839 Y55.349 E216.82145
G1 X110.486 Y55.238 E216.90023
G1 X111.079 Y55.205 E216.9715
G1 X136.078 Y55.205 E219.97138
G1 X136.734 Y55.245 E220.05024
G1 X137.38 Y55.364 E220.12907
G1 X138.007 Y55.561 E220.20794
G1 X138.605 Y55.833 E220.28677
G1 X139.166 Y56.175 E220.36561
G1 X139.681 Y56.583 E220.44446
G1 X140.143 Y57.05 E220.52329
G1 X140.544 Y57.57 E220.60209
G1 X140.88 Y58.134 E220.68087
G1 X141.144 Y58.736 E220.75975
G1 X141.334 Y59.365 E220.8386
G1 X141.445 Y60.012 E220.91737
G1 X141.478 Y60.605 E220.98864
G1 X141.478 Y90.604 E224.58852
G1 X141.438 Y91.26 E224.66739
G1 X141.319 Y91.906 E224.74621
G1 X141.122 Y92.533 E224.82508
G1 X140.85 Y93.131 E224.90391
G1 X140.508 Y93.692 E224.98275
G1 X140.264 Y94.016 E225.03143
G1 X139.402 Y95.074 E225.19519
G1 X138.729 Y96.053 E225.33775
G1 X138.142 Y97.074 E225.47908
G1 X137.646 Y98.126 E225.61864
G1 X137.23 Y99.224 E225.75954
G1 X136.903 Y100.358 E225.90117
G1 X136.671 Y101.497 E226.04066
G1 X136.53 Y102.661 E226.18136
G1 X136.478 Y103.954 E226.33664
G1 X136.478 Y118.714 E228.10784
G1 X136.53 Y120.006 E228.26301
G1 X136.671 Y121.171 E228.40383
G1 X136.904 Y122.313 E228.54369
G1 X137.231 Y123.448 E228.68543
G1 X137.642 Y124.534 E228.82477
G1 X138.142 Y125.593 E228.9653
G1 X138.729 Y126.614 E229.10663
G1 X139.402 Y127.593 E229.24919
G1 X140.264 Y128.651 E229.41295
G1 X140.647 Y129.185 E229.49181
G1 X140.963 Y129.761 E229.57065
G1 X141.206 Y130.371 E229.64945
G1 X141.374 Y131.006 E229.72827
G1 X141.463 Y131.657 E229.80711
G1 X141.478 Y132.063 E229.85587
G1 X141.478 Y162.062 E233.45575
G1 X141.438 Y162.718 E233.53461
G1 X141.319 Y163.364 E233.61344
G1 X141.122 Y163.991 E233.6923
G1 X140.85 Y164.589 E233.77114
G1 X140.508 Y165.15 E233.84998
G1 X140.1 Y165.665 E233.92883
G1 X139.633 Y166.127 E234.00765
G1 X139.113 Y166.528 E234.08645
G1 X138.549 Y166.864 E234.16523
G1 X137.947 Y167.128 E234.24412
G1 X137.318 Y167.318 E234.32296
G1 X136.671 Y167.429 E234.40174
G1 X136.078 Y167.462 E234.47301
G1 X111.079 Y167.462 E237.47289
G1 X110.423 Y167.422 E237.55175
G1 X109.777 Y167.303 E237.63058
G1 X109.15 Y167.106 E237.70944
G1 X108.552 Y166.834 E237.78828
G1 X107.991 Y166.492 E237.86712
G1 X107.476 Y166.084 E237.94597
G1 X107.014 Y165.617 E238.0248
G1 X106.613 Y165.097 E238.10359
G1 X106.277 Y164.533 E238.18237
G1 X106.013 Y163.931 E238.26126
G1 X105.823 Y163.302 E238.3401
G1 X105.712 Y162.655 E238.41888
G1 X105.679 Y162.062 E238.49015
G1 X105.679 Y132.063 E242.09003
G1 X105.719 Y131.407 E242.16889
G1 X105.838 Y130.761 E242.24772
G1 X106.035 Y130.134 E242.32659
G1 X106.307 Y129.536 E242.40542
G1 X106.649 Y128.975 E242.48426
G1 X106.886 Y128.661 E242.53147
G1 X107.747 Y127.6 E242.69544
G1 X108.434 Y126.605 E242.84053
G1 X109.008 Y125.604 E242.979
G1 X109.512 Y124.539 E243.12039
G1 X109.928 Y123.437 E243.26174
G1 X110.253 Y122.313 E243.40214
G1 X110.486 Y121.171 E243.54201
G1 X110.627 Y120.006 E243.68283
G1 X110.678 Y118.718 E243.83751
G1 X110.678 Y103.948 E245.60991
G1 X110.627 Y102.66 E245.76459
G1 X110.486 Y101.498 E245.90505
G1 X110.252 Y100.352 E246.04541
G1 X109.926 Y99.224 E246.18631
G1 X109.514 Y98.133 E246.32625
G1 X109.011 Y97.069 E246.46748
G1 X108.426 Y96.051 E246.60838
G1 X107.753 Y95.071 E246.75104
G1 X106.892 Y94.014 E246.91463
G1 X106.509 Y93.48 E246.99349
G1 X106.193 Y92.904 E247.07233
G1 X105.95 Y92.294 E247.15112
G1 X105.783 Y91.658 E247.23003
G1 X105.694 Y91.007 E247.30888
G1 X105.679 Y90.604 E247.35727
G1 X105.679 Y60.605 E250.95715
G1 X105.719 Y59.949 E251.03602
G1 X105.838 Y59.303 E251.11484
G1 X106.035 Y58.676 E251.19371
G1 X106.307 Y58.078 E251.27254
G1 X106.649 Y57.517 E251.35138
G0 F3600 X107.046 Y57.649
G1 F1800 X107.452 Y57.164 E251.42729
G1 X107.915 Y56.734 E251.50311
G1 X108.429 Y56.365 E251.57904
G1 X108.985 Y56.065 E251.65485
G1 X109.574 Y55.837 E251.73064
G1 X110.188 Y55.685 E251.80655
G1 X111.079 Y55.605 E251.9139
G1 X136.078 Y55.605 E254.91378
G1 X136.709 Y55.645 E254.98965
G1 X137.33 Y55.764 E255.06552
G1 X137.93 Y55.961 E255.14131
G1 X138.502 Y56.232 E255.21726
G1 X139.034 Y56.572 E255.29302
G1 X139.519 Y56.978 E255.36892
G1 X139.949 Y57.441 E255.44475
G1 X140.318 Y57.955 E255.52068
G1 X140.618 Y58.511 E255.59649
G1 X140.846 Y59.1 E255.67228
G1 X140.998 Y59.714 E255.74819
G1 X141.078 Y60.605 E255.85554
G1 X141.078 Y90.604 E259.45542
G1 X141.038 Y91.235 E259.53129
G1 X140.919 Y91.856 E259.60716
G1 X140.722 Y92.456 E259.68295
G1 X140.451 Y93.028 E259.7589
G1 X139.954 Y93.763 E259.86537
G1 X139.078 Y94.838 E260.03178
G1 X138.39 Y95.839 E260.17753
G1 X137.79 Y96.882 E260.32193
G1 X137.278 Y97.967 E260.46589
G1 X136.847 Y99.109 E260.61237
G1 X136.516 Y100.255 E260.75551
G1 X136.277 Y101.43 E260.8994
G1 X136.131 Y102.635 E261.04506
G1 X136.078 Y103.937 E261.20142
G1 X136.078 Y118.73 E262.97658
G1 X136.131 Y120.033 E263.13307
G1 X136.276 Y121.235 E263.27836
G1 X136.515 Y122.406 E263.42178
G1 X136.852 Y123.574 E263.56765
G1 X137.275 Y124.693 E263.71121
G1 X137.79 Y125.785 E263.85609
G1 X138.39 Y126.828 E264.00048
G1 X139.078 Y127.829 E264.14624
G1 X139.954 Y128.904 E264.31265
G1 X140.321 Y129.418 E264.38843
G1 X140.621 Y129.975 E264.46435
G1 X140.848 Y130.565 E264.54021
G1 X140.999 Y131.178 E264.61597
G1 X141.078 Y132.063 E264.72259
G1 X141.078 Y162.062 E268.32247
G1 X141.038 Y162.693 E268.39834
G1 X140.919 Y163.314 E268.47422
G1 X140.722 Y163.914 E268.55
G1 X140.451 Y164.486 E268.62596
G1 X140.111 Y165.018 E268.70172
G1 X139.705 Y165.503 E268.77762
G1 X139.242 Y165.933 E268.85345
G1 X138.728 Y166.302 E268.92937
G1 X138.172 Y166.602 E269.00519
G1 X137.583 Y166.83 E269.08098
G1 X136.969 Y166.982 E269.15688
G1 X136.078 Y167.062 E269.26423
G1 X111.079 Y167.062 E272.26411
G1 X110.448 Y167.022 E272.33998
G1 X109.827 Y166.903 E272.41586
G1 X109.227 Y166.706 E272.49164
G1 X108.655 Y166.435 E272.5676
G1 X108.123 Y166.095 E272.64336
G1 X107.638 Y165.689 E272.71926
G1 X107.208 Y165.226 E272.79509
G1 X106.839 Y164.712 E272.87101
G1 X106.539 Y164.156 E272.94683
G1 X106.311 Y163.567 E273.02262
G1 X106.159 Y162.953 E273.09852
G1 X106.079 Y162.062 E273.20587
G1 X106.079 Y132.063 E276.80575
G1 X106.119 Y131.432 E276.88162
G1 X106.238 Y130.811 E276.9575
G1 X106.435 Y130.211 E277.03328
G1 X106.706 Y129.639 E277.10923
G1 X107.196 Y128.913 E277.21434
G1 X108.073 Y127.832 E277.38138
G1 X108.771 Y126.821 E277.52881
G1 X109.365 Y125.786 E277.67201
G1 X109.882 Y124.692 E277.81721
G1 X110.305 Y123.574 E277.96065
G1 X110.642 Y122.406 E278.10653
G1 X110.881 Y121.235 E278.24995
G1 X111.026 Y120.033 E278.39523
G1 X111.078 Y118.734 E278.55124
G1 X111.078 Y103.932 E280.32748
G1 X111.026 Y102.633 E280.48348
G1 X110.881 Y101.431 E280.62877
G1 X110.642 Y100.261 E280.77207
G1 X110.306 Y99.098 E280.91733
G1 X109.88 Y97.969 E281.06214
G1 X109.368 Y96.887 E281.20578
G1 X108.766 Y95.838 E281.35092
G1 X108.072 Y94.829 E281.49787
G1 X107.202 Y93.761 E281.66317
G1 X106.835 Y93.247 E281.73896
G1 X106.535 Y92.69 E281.81488
G1 X106.308 Y92.1 E281.89074
G1 X106.157 Y91.486 E281.96661
G1 X106.079 Y90.604 E282.07287
G1 X106.079 Y60.605 E285.67275
G1 X106.119 Y59.974 E285.74862
G1 X106.238 Y59.353 E285.8245
G1 X106.435 Y58.753 E285.90028
G1 X106.706 Y58.181 E285.97623
G1 X107.046 Y57.649 E286.05199
G0 F3600 X107.444 Y57.786
G1 F1800 X107.846 Y57.333 E286.12467
G1 X108.304 Y56.936 E286.19741
G1 X108.811 Y56.603 E286.2702
G1 X109.357 Y56.339 E286.34297
G1 X109.933 Y56.15 E286.41572
G1 X110.529 Y56.038 E286.48849
G1 X111.079 Y56.005 E286.55461
G1 X136.078 Y56.005 E289.55449
G1 X136.683 Y56.045 E289.62725
G1 X137.277 Y56.164 E289.69994
G1 X137.851 Y56.36 E289.77273
G1 X138.394 Y56.631 E289.84555
G1 X138.897 Y56.97 E289.91834
G1 X139.35 Y57.372 E289.99102
G1 X139.747 Y57.83 E290.06375
G1 X140.08 Y58.337 E290.13654
G1 X140.344 Y58.883 E290.20932
G1 X140.533 Y59.459 E290.28207
G1 X140.645 Y60.055 E290.35484
G1 X140.678 Y60.605 E290.42096
G1 X140.678 Y90.604 E294.02084
G1 X140.638 Y91.209 E294.0936
G1 X140.519 Y91.803 E294.16629
G1 X140.323 Y92.377 E294.23908
G1 X140.052 Y92.92 E294.3119
G1 X139.644 Y93.51 E294.39798
G1 X138.759 Y94.596 E294.56609
G1 X138.051 Y95.627 E294.71618
G1 X137.439 Y96.691 E294.86347
G1 X136.907 Y97.817 E295.01291
G1 X136.468 Y98.979 E295.16197
G1 X136.126 Y100.164 E295.30998
G1 X135.882 Y101.364 E295.45692
G1 X135.731 Y102.608 E295.6073
G1 X135.678 Y103.921 E295.76499
G1 X135.678 Y118.747 E297.54411
G1 X135.731 Y120.059 E297.70167
G1 X135.882 Y121.302 E297.85193
G1 X136.127 Y122.506 E297.99937
G1 X136.47 Y123.696 E298.14799
G1 X136.904 Y124.842 E298.29504
G1 X137.439 Y125.976 E298.4455
G1 X138.051 Y127.04 E298.59279
G1 X138.759 Y128.071 E298.74288
G1 X139.644 Y129.157 E298.91099
G1 X139.995 Y129.651 E298.98371
G1 X140.278 Y130.187 E299.05644
G1 X140.488 Y130.756 E299.12923
G1 X140.622 Y131.347 E299.20195
G1 X140.678 Y132.063 E299.28813
G1 X140.678 Y162.062 E302.88801
G1 X140.638 Y162.667 E302.96077
G1 X140.519 Y163.261 E303.03346
G1 X140.323 Y163.835 E303.10625
G1 X140.052 Y164.378 E303.17907
G1 X139.713 Y164.881 E303.25186
G1 X139.311 Y165.334 E303.32454
G1 X138.853 Y165.731 E303.39727
G1 X138.346 Y166.064 E303.47006
G1 X137.8 Y166.328 E303.54284
G1 X137.224 Y166.517 E303.61559
G1 X136.628 Y166.629 E303.68836
G1 X136.078 Y166.662 E303.75448
G1 X111.079 Y166.662 E306.75436
G1 X110.474 Y166.622 E306.82711
G1 X109.88 Y166.503 E306.89981
G1 X109.306 Y166.307 E306.9726
G1 X108.763 Y166.036 E307.04542
G1 X108.26 Y165.697 E307.11821
G1 X107.807 Y165.295 E307.19089
G1 X107.41 Y164.837 E307.26362
G1 X107.077 Y164.33 E307.33641
G1 X106.813 Y163.784 E307.40919
G1 X106.624 Y163.208 E307.48193
G1 X106.512 Y162.612 E307.5547
G1 X106.479 Y162.062 E307.62082
G1 X106.479 Y132.063 E311.2207
G1 X106.519 Y131.458 E311.29346
G1 X106.638 Y130.864 E311.36616
G1 X106.834 Y130.29 E311.43894
G1 X107.105 Y129.747 E311.51177
G1 X107.507 Y129.165 E311.59665
G1 X108.389 Y128.078 E311.76463
G1 X109.106 Y127.04 E311.91601
G1 X109.721 Y125.967 E312.06442
G1 X110.252 Y124.846 E312.21327
G1 X110.689 Y123.689 E312.36169
G1 X111.029 Y122.509 E312.50905
G1 X111.275 Y121.302 E312.65686
G1 X111.426 Y120.059 E312.80712
G1 X111.478 Y118.75 E312.96432
G1 X111.478 Y103.916 E314.7444
G1 X111.426 Y102.607 E314.90161
G1 X111.275 Y101.365 E315.05175
G1 X111.029 Y100.158 E315.19956
G1 X110.689 Y98.979 E315.34681
G1 X110.251 Y97.82 E315.49549
G1 X109.72 Y96.696 E315.64466
G1 X109.106 Y95.628 E315.79249
G1 X108.394 Y94.592 E315.94334
G1 X107.512 Y93.509 E316.11095
G1 X107.161 Y93.014 E316.18377
G1 X106.878 Y92.478 E316.2565
G1 X106.668 Y91.909 E316.32928
G1 X106.535 Y91.318 E316.40198
G1 X106.479 Y90.604 E316.48792
G1 X106.479 Y60.605 E320.0878
G1 X106.519 Y60 E320.16056
G1 X106.638 Y59.406 E320.23325
G1 X106.834 Y58.832 E320.30604
G1 X107.105 Y58.289 E320.37886
G1 X107.444 Y57.786 E320.45165
G0 F3600 X107.84 Y57.931
G1 F1800 X108.239 Y57.511 E320.52117
G1 X108.692 Y57.149 E320.59075
G1 X109.19 Y56.854 E320.66021
G1 X109.724 Y56.629 E320.72975
G1 X110.284 Y56.481 E320.79926
G1 X111.079 Y56.405 E320.89509
G1 X136.078 Y56.405 E323.89497
G1 X136.656 Y56.445 E323.9645
G1 X137.223 Y56.564 E324.03402
G1 X137.768 Y56.76 E324.10352
G1 X138.281 Y57.029 E324.17303
G1 X138.752 Y57.366 E324.24253
G1 X139.172 Y57.765 E324.31204
G1 X139.534 Y58.218 E324.38163
G1 X139.829 Y58.716 E324.45109
G1 X140.054 Y59.25 E324.52062
G1 X140.202 Y59.81 E324.59013
G1 X140.278 Y60.605 E324.68597
G1 X140.278 Y90.604 E328.28585
G1 X140.238 Y91.182 E328.35537
G1 X140.119 Y91.749 E328.42489
G1 X139.923 Y92.294 E328.49439
G1 X139.654 Y92.807 E328.5639
G1 X139.333 Y93.258 E328.63033
G1 X138.443 Y94.35 E328.79938
G1 X137.71 Y95.417 E328.95472
G1 X137.082 Y96.509 E329.10589
G1 X136.537 Y97.664 E329.25914
G1 X136.093 Y98.838 E329.40976
G1 X135.739 Y100.064 E329.56289
G1 X135.486 Y101.31 E329.71546
G1 X135.333 Y102.569 E329.86765
G1 X135.278 Y103.93 E330.03111
G1 X135.278 Y118.738 E331.80807
G1 X135.333 Y120.099 E331.97152
G1 X135.487 Y121.368 E332.12492
G1 X135.737 Y122.597 E332.27542
G1 X136.092 Y123.826 E332.42893
G1 X136.537 Y125.003 E332.57993
G1 X137.082 Y126.158 E332.73318
G1 X137.71 Y127.25 E332.88435
G1 X138.443 Y128.317 E333.03969
G1 X139.333 Y129.409 E333.20874
G1 X139.668 Y129.883 E333.27839
G1 X139.934 Y130.397 E333.34784
G1 X140.126 Y130.944 E333.41741
G1 X140.242 Y131.511 E333.48685
G1 X140.278 Y132.063 E333.55324
G1 X140.278 Y162.062 E337.15312
G1 X140.238 Y162.64 E337.22264
G1 X140.119 Y163.207 E337.29216
G1 X139.923 Y163.752 E337.36166
G1 X139.654 Y164.265 E337.43117
G1 X139.317 Y164.736 E337.50067
G1 X138.918 Y165.156 E337.57019
G1 X138.465 Y165.518 E337.63977
G1 X137.967 Y165.813 E337.70923
G1 X137.433 Y166.038 E337.77877
G1 X136.873 Y166.186 E337.84827
G1 X136.078 Y166.262 E337.94411
G1 X111.079 Y166.262 E340.94399
G1 X110.501 Y166.222 E341.01352
G1 X109.934 Y166.103 E341.08304
G1 X109.389 Y165.907 E341.15254
G1 X108.876 Y165.638 E341.22205
G1 X108.405 Y165.301 E341.29155
G1 X107.985 Y164.902 E341.36106
G1 X107.623 Y164.449 E341.43065
G1 X107.328 Y163.951 E341.50011
G1 X107.103 Y163.417 E341.56964
G1 X106.955 Y162.857 E341.63915
G1 X106.879 Y162.062 E341.73498
G1 X106.879 Y132.063 E345.33486
G1 X106.919 Y131.485 E345.40439
G1 X107.038 Y130.918 E345.47391
G1 X107.234 Y130.373 E345.54341
G1 X107.503 Y129.86 E345.61292
G1 X107.818 Y129.417 E345.67815
G1 X108.712 Y128.315 E345.84844
G1 X109.441 Y127.259 E346.00242
G1 X110.078 Y126.149 E346.15599
G1 X110.619 Y125.006 E346.30774
G1 X111.067 Y123.819 E346.45999
G1 X111.419 Y122.601 E346.61213
G1 X111.67 Y121.368 E346.76313
G1 X111.824 Y120.098 E346.91664
G1 X111.878 Y118.741 E347.07961
G1 X111.878 Y103.925 E348.85753
G1 X111.824 Y102.568 E349.0205
G1 X111.67 Y101.298 E349.17402
G1 X111.419 Y100.067 E349.32477
G1 X111.068 Y98.853 E349.47642
G1 X110.616 Y97.655 E349.63007
G1 X110.076 Y96.514 E349.78155
G1 X109.445 Y95.415 E349.93363
G1 X108.713 Y94.35 E350.0887
G1 X107.822 Y93.256 E350.25801
G1 X107.488 Y92.783 E350.3275
G1 X107.223 Y92.268 E350.397
G1 X107.03 Y91.721 E350.46661
G1 X106.915 Y91.154 E350.53603
G1 X106.879 Y90.604 E350.60217
G1 X106.879 Y60.605 E354.20205
G1 X106.919 Y60.027 E354.27158
G1 X107.038 Y59.46 E354.3411
G1 X107.234 Y58.915 E354.4106
G1 X107.503 Y58.402 E354.48011
G1 X107.84 Y57.931 E354.54961
G0 F3600 X108.236 Y58.083
G1 F1800 X108.631 Y57.699 E354.61572
G1 X109.077 Y57.375 E354.68187
G1 X109.565 Y57.12 E354.74794
G1 X110.085 Y56.937 E354.81409
G1 X110.626 Y56.832 E354.88022
G1 X111.079 Y56.805 E354.93468
G1 X136.078 Y56.805 E357.93456
G1 X136.628 Y56.845 E358.00073
G1 X137.166 Y56.964 E358.06685
G1 X137.681 Y57.16 E358.13298
G1 X138.162 Y57.428 E358.19905
G1 X138.6 Y57.762 E358.26515
G1 X138.984 Y58.157 E358.33126
G1 X139.308 Y58.603 E358.39741
G1 X139.563 Y59.091 E358.46348
G1 X139.746 Y59.611 E358.52963
G1 X139.851 Y60.152 E358.59577
G1 X139.878 Y60.605 E358.65022
G1 X139.878 Y90.604 E362.2501
G1 X139.838 Y91.154 E362.31628
G1 X139.719 Y91.692 E362.3824
G1 X139.523 Y92.207 E362.44852
G1 X139.255 Y92.688 E362.5146
G1 X139.023 Y93.005 E362.56173
G1 X138.123 Y94.109 E362.73266
G1 X137.374 Y95.2 E362.89146
G1 X136.723 Y96.332 E363.04816
G1 X136.17 Y97.504 E363.20367
G1 X135.71 Y98.719 E363.35957
G1 X135.352 Y99.961 E363.51468
G1 X135.088 Y101.255 E363.67316
G1 X134.934 Y102.529 E363.82715
G1 X134.878 Y103.914 E363.99349
G1 X134.878 Y118.754 E365.77429
G1 X134.934 Y120.138 E365.9405
G1 X135.09 Y121.422 E366.09572
G1 X135.35 Y122.7 E366.25222
G1 X135.708 Y123.941 E366.40721
G1 X136.171 Y125.167 E366.56447
G1 X136.723 Y126.335 E366.7195
G1 X137.374 Y127.467 E366.8762
G1 X138.123 Y128.558 E367.035
G1 X139.023 Y129.662 E367.20592
G1 X139.34 Y130.113 E367.27208
G1 X139.587 Y130.605 E367.33814
G1 X139.761 Y131.128 E367.40428
G1 X139.858 Y131.671 E367.47047
G1 X139.878 Y132.063 E367.51757
G1 X139.878 Y162.062 E371.11745
G1 X139.838 Y162.612 E371.18363
G1 X139.719 Y163.15 E371.24975
G1 X139.523 Y163.665 E371.31587
G1 X139.255 Y164.146 E371.38195
G1 X138.921 Y164.584 E371.44805
G1 X138.526 Y164.968 E371.51415
G1 X138.08 Y165.292 E371.5803
G1 X137.592 Y165.547 E371.64638
G1 X137.072 Y165.73 E371.71253
G1 X136.531 Y165.835 E371.77866
G1 X136.078 Y165.862 E371.83312
G1 X111.079 Y165.862 E374.833
G1 X110.529 Y165.822 E374.89917
G1 X109.991 Y165.703 E374.96529
G1 X109.476 Y165.507 E375.03142
G1 X108.995 Y165.239 E375.09749
G1 X108.557 Y164.905 E375.16359
G1 X108.173 Y164.51 E375.2297
G1 X107.849 Y164.064 E375.29585
G1 X107.594 Y163.576 E375.36192
G1 X107.411 Y163.056 E375.42807
G1 X107.306 Y162.515 E375.4942
G1 X107.279 Y162.062 E375.54866
G1 X107.279 Y132.063 E379.14854
G1 X107.319 Y131.513 E379.21471
G1 X107.438 Y130.975 E379.28083
G1 X107.634 Y130.46 E379.34696
G1 X107.902 Y129.979 E379.41303
G1 X108.128 Y129.669 E379.45907
G1 X109.034 Y128.553 E379.63156
G1 X109.782 Y127.469 E379.78961
G1 X110.435 Y126.33 E379.94716
G1 X110.984 Y125.17 E380.10116
G1 X111.447 Y123.945 E380.25831
G1 X111.809 Y122.692 E380.41482
G1 X112.067 Y121.422 E380.57033
G1 X112.223 Y120.138 E380.72554
G1 X112.278 Y118.756 E380.89152
G1 X112.278 Y103.91 E382.67304
G1 X112.223 Y102.528 E382.83901
G1 X112.067 Y101.244 E382.99422
G1 X111.809 Y99.975 E383.14962
G1 X111.447 Y98.722 E383.30612
G1 X110.983 Y97.495 E383.46354
G1 X110.431 Y96.327 E383.61856
G1 X109.784 Y95.201 E383.7744
G1 X109.041 Y94.12 E383.93181
G1 X108.132 Y93.004 E384.10453
G1 X107.816 Y92.552 E384.17071
G1 X107.569 Y92.06 E384.23677
G1 X107.395 Y91.537 E384.30292
G1 X107.299 Y90.994 E384.36909
G1 X107.279 Y90.604 E384.41595
G1 X107.279 Y60.605 E388.01583
G1 X107.319 Y60.055 E388.082
G1 X107.438 Y59.517 E388.14812
G1 X107.634 Y59.002 E388.21425
G1 X107.902 Y58.521 E388.28032
G1 X108.236 Y58.083 E388.34642
G0 F3600 X108.631 Y58.245
G1 F1800 X109.021 Y57.899 E388.40898
G1 X109.459 Y57.616 E388.47156
G1 X109.934 Y57.403 E388.53403
G1 X110.437 Y57.266 E388.59659
G1 X111.079 Y57.205 E388.67397
G1 X136.078 Y57.205 E391.67385
G1 X136.598 Y57.245 E391.73644
G1 X137.105 Y57.364 E391.79893
G1 X137.588 Y57.559 E391.86144
G1 X138.036 Y57.825 E391.92396
G1 X138.438 Y58.157 E391.98652
G1 X138.784 Y58.547 E392.04909
G1 X139.067 Y58.985 E392.11166
G1 X139.28 Y59.46 E392.17413
G1 X139.417 Y59.963 E392.23669
G1 X139.478 Y60.605 E392.31408
G1 X139.478 Y90.604 E395.91396
G1 X139.438 Y91.124 E395.97654
G1 X139.319 Y91.631 E396.03904
G1 X139.124 Y92.114 E396.10154
G1 X138.713 Y92.752 E396.19261
G1 X137.8 Y93.872 E396.36601
G1 X137.038 Y94.981 E396.52748
G1 X136.374 Y96.136 E396.68735
G1 X135.798 Y97.356 E396.84925
G1 X135.33 Y98.593 E397.00795
G1 X134.963 Y99.868 E397.16717
G1 X134.693 Y101.191 E397.3292
G1 X134.535 Y102.502 E397.48766
G1 X134.478 Y103.898 E397.65532
G1 X134.478 Y118.77 E399.43996
G1 X134.535 Y120.165 E399.6075
G1 X134.693 Y121.477 E399.76607
G1 X134.964 Y122.803 E399.92848
G1 X135.329 Y124.071 E400.08682
G1 X135.798 Y125.311 E400.24591
G1 X136.374 Y126.531 E400.40781
G1 X137.038 Y127.686 E400.56768
G1 X137.8 Y128.795 E400.72914
G1 X138.713 Y129.915 E400.90254
G1 X139.011 Y130.343 E400.96512
G1 X139.239 Y130.811 E401.02759
G1 X139.393 Y131.309 E401.09015
G1 X139.478 Y132.063 E401.1812
G1 X139.478 Y162.062 E404.78108
G1 X139.438 Y162.582 E404.84366
G1 X139.319 Y163.089 E404.90616
G1 X139.124 Y163.572 E404.96866
G1 X138.858 Y164.02 E405.03119
G1 X138.526 Y164.422 E405.09375
G1 X138.136 Y164.768 E405.15631
G1 X137.698 Y165.051 E405.21889
G1 X137.223 Y165.264 E405.28136
G1 X136.72 Y165.401 E405.34392
G1 X136.078 Y165.462 E405.4213
G1 X111.079 Y165.462 E408.42118
G1 X110.559 Y165.422 E408.48377
G1 X110.052 Y165.303 E408.54626
G1 X109.569 Y165.108 E408.60877
G1 X109.121 Y164.842 E408.67129
G1 X108.719 Y164.51 E408.73385
G1 X108.373 Y164.12 E408.79642
G1 X108.09 Y163.682 E408.85899
G1 X107.877 Y163.207 E408.92146
G1 X107.74 Y162.704 E408.98402
G1 X107.679 Y162.062 E409.06141
G1 X107.679 Y132.063 E412.66129
G1 X107.719 Y131.543 E412.72387
G1 X107.838 Y131.036 E412.78637
G1 X108.033 Y130.553 E412.84887
G1 X108.439 Y129.921 E412.93901
G1 X109.35 Y128.799 E413.11244
G1 X110.122 Y127.68 E413.27558
G1 X110.787 Y126.522 E413.43582
G1 X111.355 Y125.319 E413.59547
G1 X111.825 Y124.075 E413.75504
G1 X112.195 Y122.795 E413.91493
G1 X112.464 Y121.477 E414.07635
G1 X112.622 Y120.165 E414.23493
G1 X112.678 Y118.772 E414.40223
G1 X112.678 Y103.894 E416.18759
G1 X112.622 Y102.501 E416.35488
G1 X112.462 Y101.178 E416.5148
G1 X112.198 Y99.884 E416.67328
G1 X111.823 Y98.585 E416.83552
G1 X111.357 Y97.353 E416.99358
G1 X110.782 Y96.136 E417.1551
G1 X110.125 Y94.991 E417.31352
G1 X109.353 Y93.868 E417.47705
G1 X108.443 Y92.751 E417.64994
G1 X108.145 Y92.323 E417.71252
G1 X107.917 Y91.854 E417.7751
G1 X107.763 Y91.356 E417.83765
G1 X107.679 Y90.604 E417.92845
G1 X107.679 Y60.605 E421.52833
G1 X107.719 Y60.085 E421.59092
G1 X107.838 Y59.578 E421.65341
G1 X108.033 Y59.095 E421.71592
G1 X108.299 Y58.647 E421.77844
G1 X108.631 Y58.245 E421.841
G0 F3600 X109.025 Y58.418
G1 F1800 X109.408 Y58.113 E421.89976
G1 X109.836 Y57.875 E421.95852
G1 X110.296 Y57.709 E422.01721
G1 X110.777 Y57.62 E422.07591
G1 X111.079 Y57.605 E422.11219
G1 X136.078 Y57.605 E425.11207
G1 X136.566 Y57.645 E425.17083
G1 X137.041 Y57.764 E425.22959
G1 X137.49 Y57.958 E425.28828
G1 X137.902 Y58.223 E425.34707
G1 X138.265 Y58.551 E425.40578
G1 X138.57 Y58.934 E425.46453
G1 X138.808 Y59.362 E425.5233
G1 X138.974 Y59.822 E425.58198
G1 X139.063 Y60.303 E425.64068
G1 X139.078 Y60.605 E425.67696
G1 X139.078 Y90.604 E429.27684
G1 X139.038 Y91.092 E429.3356
G1 X138.919 Y91.567 E429.39436
G1 X138.725 Y92.016 E429.45306
G1 X138.403 Y92.499 E429.52272
G1 X137.487 Y93.623 E429.69671
G1 X136.694 Y94.777 E429.86474
G1 X136.017 Y95.954 E430.02767
G1 X135.431 Y97.196 E430.19247
G1 X134.952 Y98.463 E430.35501
G1 X134.573 Y99.777 E430.51912
G1 X134.299 Y101.125 E430.68419
G1 X134.136 Y102.464 E430.84606
G1 X134.078 Y103.906 E431.01924
G1 X134.078 Y118.761 E432.80184
G1 X134.136 Y120.204 E432.97513
G1 X134.299 Y121.543 E433.137
G1 X134.573 Y122.89 E433.30195
G1 X134.951 Y124.201 E433.46568
G1 X135.433 Y125.475 E433.62914
G1 X136.017 Y126.713 E433.7934
G1 X136.694 Y127.89 E433.95633
G1 X137.487 Y129.044 E434.12436
G1 X138.403 Y130.168 E434.29835
G1 X138.681 Y130.571 E434.3571
G1 X138.889 Y131.014 E434.41583
G1 X139.022 Y131.485 E434.47456
G1 X139.078 Y132.063 E434.54425
G1 X139.078 Y162.062 E438.14413
G1 X139.038 Y162.55 E438.20288
G1 X138.919 Y163.025 E438.26165
G1 X138.725 Y163.474 E438.32034
G1 X138.46 Y163.886 E438.37912
G1 X138.132 Y164.249 E438.43783
G1 X137.749 Y164.554 E438.49659
G1 X137.321 Y164.792 E438.55535
G1 X136.861 Y164.958 E438.61404
G1 X136.38 Y165.047 E438.67274
G1 X136.078 Y165.062 E438.70902
G1 X111.079 Y165.062 E441.7089
G1 X110.591 Y165.022 E441.76766
G1 X110.116 Y164.903 E441.82642
G1 X109.667 Y164.709 E441.88511
G1 X109.255 Y164.444 E441.9439
G1 X108.892 Y164.116 E442.00261
G1 X108.587 Y163.733 E442.06136
G1 X108.349 Y163.305 E442.12012
G1 X108.183 Y162.845 E442.17881
G1 X108.094 Y162.364 E442.23751
G1 X108.079 Y162.062 E442.27379
G1 X108.079 Y132.063 E445.87367
G1 X108.119 Y131.575 E445.93243
G1 X108.238 Y131.1 E445.99119
G1 X108.432 Y130.651 E446.04989
G1 X108.749 Y130.173 E446.11871
G1 X109.676 Y129.031 E446.29522
G1 X110.462 Y127.891 E446.46138
G1 X111.141 Y126.709 E446.62496
G1 X111.726 Y125.473 E446.78905
G1 X112.206 Y124.201 E446.9522
G1 X112.582 Y122.898 E447.11494
G1 X112.858 Y121.543 E447.28088
G1 X113.021 Y120.204 E447.44275
G1 X113.078 Y118.763 E447.6158
G1 X113.078 Y103.903 E449.399
G1 X113.021 Y102.462 E449.57206
G1 X112.857 Y101.111 E449.73537
G1 X112.586 Y99.781 E449.89825
G1 X112.207 Y98.47 E450.06201
G1 X111.723 Y97.189 E450.22633
G1 X111.144 Y95.964 E450.38893
G1 X110.458 Y94.77 E450.55417
G1 X109.672 Y93.626 E450.72073
G1 X108.753 Y92.498 E450.89533
G1 X108.476 Y92.095 E450.95401
G1 X108.268 Y91.652 E451.01274
G1 X108.135 Y91.181 E451.07147
G1 X108.079 Y90.604 E451.14103
G1 X108.079 Y60.605 E454.74091
G1 X108.119 Y60.117 E454.79967
G1 X108.238 Y59.642 E454.85843
G1 X108.432 Y59.193 E454.91713
G1 X108.697 Y58.781 E454.97591
G1 X109.025 Y58.418 E455.03462
G0 F3600 X109.417 Y58.605
G1 F1800 X109.792 Y58.346 E455.08931
G1 X110.206 Y58.156 E455.14397
G1 X110.647 Y58.041 E455.19866
G1 X111.079 Y58.005 E455.25068
G1 X136.078 Y58.005 E458.25056
G1 X136.532 Y58.045 E458.30525
G1 X136.972 Y58.163 E458.35992
G1 X137.384 Y58.357 E458.41456
G1 X137.757 Y58.62 E458.46933
G1 X138.078 Y58.943 E458.52398
G1 X138.337 Y59.318 E458.57867
G1 X138.527 Y59.732 E458.63333
G1 X138.642 Y60.173 E458.68802
G1 X138.678 Y60.605 E458.74004
G1 X138.678 Y90.604 E462.33992
G1 X138.638 Y91.058 E462.39461
G1 X138.52 Y91.498 E462.44927
G1 X138.326 Y91.91 E462.50392
G1 X138.093 Y92.247 E462.55308
G1 X137.159 Y93.393 E462.73049
G1 X136.358 Y94.558 E462.90015
G1 X135.66 Y95.772 E463.06819
G1 X135.066 Y97.032 E463.23535
G1 X134.568 Y98.348 E463.4042
G1 X134.186 Y99.674 E463.56979
G1 X133.904 Y101.059 E463.7394
G1 X133.737 Y102.437 E463.90597
G1 X133.678 Y103.89 E464.08048
G1 X133.678 Y118.778 E465.86704
G1 X133.737 Y120.23 E466.04142
G1 X133.904 Y121.609 E466.20811
G1 X134.186 Y122.993 E466.3776
G1 X134.568 Y124.32 E466.54331
G1 X135.066 Y125.635 E466.71204
G1 X135.66 Y126.895 E466.8792
G1 X136.358 Y128.109 E467.04725
G1 X137.159 Y129.274 E467.2169
G1 X138.093 Y130.42 E467.39431
G1 X138.349 Y130.797 E467.44899
G1 X138.535 Y131.213 E467.50368
G1 X138.646 Y131.655 E467.55836
G1 X138.678 Y132.063 E467.60747
G1 X138.678 Y162.062 E471.20735
G1 X138.638 Y162.516 E471.26205
G1 X138.52 Y162.956 E471.31671
G1 X138.326 Y163.368 E471.37136
G1 X138.063 Y163.741 E471.42613
G1 X137.74 Y164.062 E471.48077
G1 X137.365 Y164.321 E471.53546
G1 X136.951 Y164.511 E471.59012
G1 X136.51 Y164.626 E471.64481
G1 X136.078 Y164.662 E471.69683
G1 X111.079 Y164.662 E474.69671
G1 X110.625 Y164.622 E474.7514
G1 X110.185 Y164.504 E474.80607
G1 X109.773 Y164.31 E474.86072
G1 X109.4 Y164.047 E474.91548
G1 X109.079 Y163.724 E474.97013
G1 X108.82 Y163.349 E475.02482
G1 X108.63 Y162.935 E475.07948
G1 X108.515 Y162.494 E475.13417
G1 X108.479 Y162.062 E475.18619
G1 X108.479 Y132.063 E478.78607
G1 X108.519 Y131.609 E478.84076
G1 X108.637 Y131.169 E478.89543
G1 X108.831 Y130.757 E478.95007
G1 X109.06 Y130.425 E478.99847
G1 X109.992 Y129.276 E479.17601
G1 X110.803 Y128.101 E479.34733
G1 X111.492 Y126.901 E479.51338
G1 X112.095 Y125.626 E479.68263
G1 X112.586 Y124.327 E479.84927
G1 X112.972 Y122.989 E480.01638
G1 X113.253 Y121.609 E480.18538
G1 X113.42 Y120.231 E480.35195
G1 X113.478 Y118.779 E480.52633
G1 X113.478 Y103.887 E482.31337
G1 X113.42 Y102.435 E482.48775
G1 X113.253 Y101.059 E482.65408
G1 X112.971 Y99.676 E482.82345
G1 X112.586 Y98.34 E482.9903
G1 X112.094 Y97.039 E483.15721
G1 X111.495 Y95.772 E483.32538
G1 X110.794 Y94.551 E483.49433
G1 X110 Y93.397 E483.66243
G1 X109.063 Y92.246 E483.84053
G1 X108.807 Y91.869 E483.89521
G1 X108.621 Y91.453 E483.94989
G1 X108.511 Y91.011 E484.00455
G1 X108.479 Y90.604 E484.05354
G1 X108.479 Y60.605 E487.65342
G1 X108.519 Y60.151 E487.70811
G1 X108.637 Y59.711 E487.76278
G1 X108.831 Y59.299 E487.81743
G1 X109.094 Y58.926 E487.87219
G1 X109.417 Y58.605 E487.92684
G0 F3600 X109.806 Y58.811
G1 F1800 X110.169 Y58.602 E487.9771
G1 X110.566 Y58.466 E488.02746
G1 X111.079 Y58.405 E488.08945
G1 X136.078 Y58.405 E491.08933
G1 X136.495 Y58.445 E491.1396
G1 X136.897 Y58.563 E491.18988
G1 X137.269 Y58.756 E491.24017
G1 X137.598 Y59.015 E491.29042
G1 X137.872 Y59.332 E491.3407
G1 X138.081 Y59.695 E491.39096
G1 X138.217 Y60.092 E491.44132
G1 X138.278 Y60.605 E491.50331
G1 X138.278 Y90.604 E495.10319
G1 X138.238 Y91.021 E495.15346
G1 X138.12 Y91.423 E495.20374
G1 X137.927 Y91.795 E495.25403
G1 X137.783 Y91.994 E495.2835
G1 X136.84 Y93.151 E495.46262
G1 X136.016 Y94.351 E495.6373
G1 X135.306 Y95.585 E495.80814
G1 X134.699 Y96.872 E495.97889
G1 X134.19 Y98.218 E496.15158
G1 X133.796 Y99.583 E496.32206
G1 X133.509 Y100.992 E496.49462
G1 X133.337 Y102.41 E496.66602
G1 X133.278 Y103.874 E496.84185
G1 X133.278 Y118.794 E498.63225
G1 X133.337 Y120.259 E498.80819
G1 X133.509 Y121.674 E498.97924
G1 X133.796 Y123.084 E499.15191
G1 X134.188 Y124.446 E499.32198
G1 X134.701 Y125.799 E499.49562
G1 X135.306 Y127.082 E499.66584
G1 X136.016 Y128.316 E499.83668
G1 X136.84 Y129.516 E500.01136
G1 X137.783 Y130.673 E500.19048
G1 X138.016 Y131.022 E500.24083
G1 X138.178 Y131.408 E500.29107
G1 X138.264 Y131.818 E500.34134
G1 X138.278 Y132.063 E500.37078
G1 X138.278 Y162.062 E503.97066
G1 X138.238 Y162.479 E504.02093
G1 X138.12 Y162.881 E504.07121
G1 X137.927 Y163.253 E504.1215
G1 X137.668 Y163.582 E504.17175
G1 X137.351 Y163.856 E504.22203
G1 X136.988 Y164.065 E504.27229
G1 X136.591 Y164.201 E504.32265
G1 X136.078 Y164.262 E504.38464
G1 X111.079 Y164.262 E507.38452
G1 X110.662 Y164.222 E507.43479
G1 X110.26 Y164.104 E507.48507
G1 X109.888 Y163.911 E507.53536
G1 X109.559 Y163.652 E507.5856
G1 X109.285 Y163.335 E507.63588
G1 X109.076 Y162.972 E507.68615
G1 X108.94 Y162.575 E507.7365
G1 X108.879 Y162.062 E507.7985
G1 X108.879 Y132.063 E511.39838
G1 X108.919 Y131.646 E511.44865
G1 X109.037 Y131.244 E511.49892
G1 X109.23 Y130.872 E511.54921
G1 X109.371 Y130.677 E511.57809
G1 X110.308 Y129.522 E511.75656
G1 X111.143 Y128.312 E511.93298
G1 X111.849 Y127.082 E512.10317
G1 X112.462 Y125.786 E512.27521
G1 X112.964 Y124.457 E512.44568
G1 X113.362 Y123.08 E512.61769
G1 X113.648 Y121.674 E512.78986
G1 X113.82 Y120.259 E512.96091
G1 X113.878 Y118.795 E513.13673
G1 X113.878 Y103.871 E514.92761
G1 X113.82 Y102.407 E515.10343
G1 X113.649 Y100.994 E515.27423
G1 X113.361 Y99.585 E515.4468
G1 X112.965 Y98.214 E515.61805
G1 X112.459 Y96.875 E515.78982
G1 X111.852 Y95.591 E515.96025
G1 X111.134 Y94.341 E516.13323
G1 X110.317 Y93.153 E516.30625
G1 X109.373 Y91.993 E516.48572
G1 X109.141 Y91.645 E516.53591
G1 X108.978 Y91.258 E516.5863
G1 X108.893 Y90.848 E516.63654
G1 X108.879 Y90.604 E516.66587
G1 X108.879 Y60.605 E520.26575
G1 X108.919 Y60.188 E520.31602
G1 X109.037 Y59.786 E520.3663
G1 X109.23 Y59.414 E520.41659
G1 X109.489 Y59.085 E520.46683
G1 X109.806 Y58.811 E520.51711
G0 F3600 X110.191 Y59.04
G1 F1800 X110.538 Y58.888 E520.56257
G1 X111.079 Y58.805 E520.62825
G1 X136.078 Y58.805 E523.62813
G1 X136.455 Y58.845 E523.67363
G1 X136.815 Y58.963 E523.71909
G1 X137.142 Y59.153 E523.76447
G1 X137.423 Y59.408 E523.81001
G1 X137.643 Y59.717 E523.85552
G1 X137.795 Y60.064 E523.90098
G1 X137.878 Y60.605 E523.96666
G1 X137.878 Y90.604 E527.56654
G1 X137.838 Y90.981 E527.61204
G1 X137.72 Y91.341 E527.6575
G1 X137.473 Y91.741 E527.71391
G1 X136.522 Y92.907 E527.89447
G1 X135.681 Y94.132 E528.07278
G1 X134.95 Y95.404 E528.24883
G1 X134.329 Y96.718 E528.42323
G1 X133.811 Y98.089 E528.5991
G1 X133.406 Y99.495 E528.77468
G1 X133.114 Y100.927 E528.95006
G1 X132.939 Y102.369 E529.12437
G1 X132.878 Y103.882 E529.30608
G1 X132.878 Y118.786 E531.09456
G1 X132.939 Y120.298 E531.27614
G1 X133.114 Y121.741 E531.45057
G1 X133.406 Y123.175 E531.62618
G1 X133.813 Y124.587 E531.80252
G1 X134.324 Y125.938 E531.97585
G1 X134.95 Y127.263 E532.1517
G1 X135.681 Y128.535 E532.32775
G1 X136.522 Y129.76 E532.50606
G1 X137.473 Y130.926 E532.68662
G1 X137.68 Y131.243 E532.73205
G1 X137.817 Y131.597 E532.7776
G1 X137.878 Y132.063 E532.834
G1 X137.878 Y162.062 E536.43388
G1 X137.838 Y162.439 E536.47937
G1 X137.72 Y162.799 E536.52483
G1 X137.53 Y163.126 E536.57022
G1 X137.275 Y163.407 E536.61575
G1 X136.966 Y163.627 E536.66127
G1 X136.619 Y163.779 E536.70673
G1 X136.078 Y163.862 E536.77241
G1 X111.079 Y163.862 E539.77229
G1 X110.702 Y163.822 E539.81778
G1 X110.342 Y163.704 E539.86325
G1 X110.015 Y163.514 E539.90863
G1 X109.734 Y163.259 E539.95416
G1 X109.514 Y162.95 E539.99968
G1 X109.362 Y162.603 E540.04514
G1 X109.279 Y162.062 E540.11082
G1 X109.279 Y132.063 E543.7107
G1 X109.319 Y131.686 E543.75619
G1 X109.437 Y131.326 E543.80166
G1 X109.681 Y130.929 E543.85757
G1 X110.636 Y129.752 E544.03946
G1 X111.479 Y128.531 E544.21751
G1 X112.206 Y127.264 E544.3928
G1 X112.827 Y125.95 E544.5672
G1 X113.348 Y124.572 E544.74399
G1 X113.749 Y123.183 E544.91747
G1 X114.043 Y121.741 E545.09407
G1 X114.218 Y120.298 E545.2685
G1 X114.278 Y118.786 E545.45008
G1 X114.278 Y103.88 E547.2388
G1 X114.218 Y102.368 E547.42039
G1 X114.043 Y100.928 E547.59446
G1 X113.748 Y99.482 E547.77155
G1 X113.348 Y98.095 E547.94478
G1 X112.826 Y96.715 E548.12183
G1 X112.206 Y95.403 E548.29596
G1 X111.477 Y94.133 E548.47168
G1 X110.641 Y92.917 E548.64876
G1 X109.683 Y91.741 E548.83078
G1 X109.476 Y91.423 E548.87631
G1 X109.34 Y91.07 E548.92171
G1 X109.279 Y90.604 E548.9781
G1 X109.279 Y60.605 E552.57798
G1 X109.319 Y60.228 E552.62348
G1 X109.437 Y59.868 E552.66894
G1 X109.627 Y59.541 E552.71432
G1 X109.882 Y59.26 E552.75986
G1 X110.191 Y59.04 E552.80538
G0 F3600 X111.079 Y59.205
G1 F1800 X136.078 Y59.205 E555.80526
G1 X136.41 Y59.245 E555.84538
G1 X136.722 Y59.362 E555.88537
G1 X136.999 Y59.55 E555.92554
G1 X137.222 Y59.798 E555.96556
G1 X137.381 Y60.092 E556.00567
G1 X137.465 Y60.416 E556.04584
G1 X137.478 Y60.605 E556.06857
G1 X137.478 Y90.604 E559.66845
G1 X137.438 Y90.936 E559.70858
G1 X137.321 Y91.248 E559.74857
G1 X137.163 Y91.489 E559.78315
G1 X136.199 Y92.672 E559.96627
G1 X135.342 Y93.919 E560.14784
G1 X134.596 Y95.217 E560.3275
G1 X133.955 Y96.574 E560.50759
G1 X133.432 Y97.959 E560.68524
G1 X133.018 Y99.392 E560.86424
G1 X132.719 Y100.861 E561.04413
G1 X132.54 Y102.342 E561.22314
G1 X132.478 Y103.866 E561.40618
G1 X132.478 Y118.802 E563.1985
G1 X132.54 Y120.325 E563.38141
G1 X132.719 Y121.805 E563.5603
G1 X133.019 Y123.277 E563.74057
G1 X133.432 Y124.709 E563.91942
G1 X133.955 Y126.093 E564.09696
G1 X134.596 Y127.45 E564.27705
G1 X135.342 Y128.748 E564.4567
G1 X136.199 Y129.995 E564.63828
G1 X137.163 Y131.178 E564.8214
G1 X137.342 Y131.461 E564.86158
G1 X137.449 Y131.777 E564.90162
G1 X137.478 Y132.063 E564.93611
G1 X137.478 Y162.062 E568.53599
G1 X137.438 Y162.394 E568.57612
G1 X137.321 Y162.706 E568.61611
G1 X137.133 Y162.983 E568.65628
G1 X136.885 Y163.206 E568.6963
G1 X136.591 Y163.365 E568.73641
G1 X136.267 Y163.449 E568.77658
G1 X136.078 Y163.462 E568.79931
G1 X111.079 Y163.462 E571.79919
G1 X110.747 Y163.422 E571.83932
G1 X110.435 Y163.305 E571.8793
G1 X110.158 Y163.117 E571.91948
G1 X109.935 Y162.869 E571.9595
G1 X109.776 Y162.575 E571.99961
G1 X109.692 Y162.251 E572.03977
G1 X109.679 Y162.062 E572.06251
G1 X109.679 Y132.063 E575.66239
G1 X109.719 Y131.731 E575.70252
G1 X109.836 Y131.419 E575.7425
G1 X109.992 Y131.181 E575.77665
G1 X110.957 Y129.992 E575.96041
G1 X111.816 Y128.747 E576.14192
G1 X112.558 Y127.455 E576.32071
G1 X113.197 Y126.104 E576.50005
G1 X113.728 Y124.698 E576.6804
G1 X114.138 Y123.277 E576.85787
G1 X114.438 Y121.805 E577.03815
G1 X114.617 Y120.325 E577.21704
G1 X114.678 Y118.802 E577.39995
G1 X114.678 Y103.864 E579.19251
G1 X114.617 Y102.341 E579.37541
G1 X114.438 Y100.861 E579.55431
G1 X114.138 Y99.39 E579.73446
G1 X113.728 Y97.969 E579.91194
G1 X113.196 Y96.562 E580.09244
G1 X112.558 Y95.212 E580.27162
G1 X111.817 Y93.923 E580.45004
G1 X110.958 Y92.673 E580.63204
G1 X109.993 Y91.488 E580.81543
G1 X109.815 Y91.206 E580.85545
G1 X109.708 Y90.889 E580.8956
G1 X109.679 Y90.604 E580.92997
G1 X109.679 Y60.605 E584.52985
G1 X109.719 Y60.273 E584.56998
G1 X109.836 Y59.961 E584.60997
G1 X110.024 Y59.684 E584.65014
G1 X110.272 Y59.461 E584.69016
G1 X110.566 Y59.302 E584.73027
G1 X110.89 Y59.218 E584.77044
G1 X111.079 Y59.205 E584.79317
G0 F3600 X111.079 Y59.605
G1 F1800 X136.078 Y59.605 E587.79305
G1 X136.357 Y59.645 E587.82687
G1 X136.614 Y59.761 E587.86071
G1 X136.829 Y59.944 E587.89459
G1 X136.983 Y60.18 E587.9284
G1 X137.066 Y60.45 E587.9623
G1 X137.078 Y60.605 E587.98096
G1 X137.078 Y90.604 E591.58084
G1 X137.038 Y90.883 E591.61466
G1 X136.853 Y91.236 E591.66248
G1 X135.875 Y92.435 E591.84816
G1 X135.003 Y93.705 E592.03302
G1 X134.241 Y95.03 E592.21644
G1 X133.59 Y96.41 E592.39954
G1 X133.052 Y97.833 E592.5821
G1 X132.629 Y99.299 E592.7652
G1 X132.324 Y100.797 E592.94864
G1 X132.14 Y102.316 E593.13226
G1 X132.078 Y103.849 E593.31637
G1 X132.078 Y118.818 E595.11265
G1 X132.14 Y120.352 E595.29688
G1 X132.324 Y121.871 E595.48049
G1 X132.629 Y123.368 E595.66382
G1 X133.052 Y124.835 E595.84703
G1 X133.59 Y126.257 E596.02948
G1 X134.241 Y127.637 E596.21258
G1 X135.003 Y128.962 E596.396
G1 X135.875 Y130.232 E596.58086
G1 X136.853 Y131.431 E596.76654
G1 X136.999 Y131.673 E596.80045
G1 X137.078 Y132.063 E596.8482
G1 X137.078 Y162.062 E600.44808
G1 X137.038 Y162.341 E600.4819
G1 X136.922 Y162.598 E600.51574
G1 X136.739 Y162.813 E600.54962
G1 X136.503 Y162.967 E600.58344
G1 X136.233 Y163.05 E600.61733
G1 X136.078 Y163.062 E600.63599
G1 X111.079 Y163.062 E603.63587
G1 X110.8 Y163.022 E603.66969
G1 X110.543 Y162.906 E603.70353
G1 X110.328 Y162.723 E603.73741
G1 X110.174 Y162.487 E603.77122
G1 X110.091 Y162.217 E603.80512
G1 X110.079 Y162.062 E603.82378
G1 X110.079 Y132.063 E607.42366
G1 X110.119 Y131.784 E607.45748
G1 X110.302 Y131.433 E607.50498
G1 X111.279 Y130.229 E607.69104
G1 X112.156 Y128.958 E607.87635
G1 X112.915 Y127.637 E608.05917
G1 X113.569 Y126.253 E608.24286
G1 X114.103 Y124.84 E608.42412
G1 X114.528 Y123.368 E608.60798
G1 X114.833 Y121.871 E608.79131
G1 X115.017 Y120.352 E608.97492
G1 X115.078 Y118.818 E609.15915
G1 X115.078 Y103.848 E610.95555
G1 X115.017 Y102.314 E611.13977
G1 X114.833 Y100.795 E611.32339
G1 X114.528 Y99.299 E611.5066
G1 X114.104 Y97.832 E611.68984
G1 X113.566 Y96.408 E611.87251
G1 X112.915 Y95.03 E612.0554
G1 X112.157 Y93.71 E612.23806
G1 X111.272 Y92.424 E612.42539
G1 X110.304 Y91.235 E612.60937
G1 X110.158 Y90.994 E612.64319
G1 X110.079 Y90.604 E612.69094
G1 X110.079 Y60.605 E616.29082
G1 X110.119 Y60.326 E616.32464
G1 X110.235 Y60.069 E616.35847
G1 X110.418 Y59.854 E616.39236
G1 X110.654 Y59.7 E616.42617
G1 X110.924 Y59.617 E616.46007
G1 X111.079 Y59.605 E616.47872
G0 F3600 X111.079 Y60.005
G1 F1800 X136.078 Y60.005 E619.4786
G1 X136.293 Y60.045 E619.50485
G1 X136.479 Y60.158 E619.53096
G1 X136.612 Y60.331 E619.55715
G1 X136.678 Y60.605 E619.59097
G1 X136.678 Y90.604 E623.19085
G1 X136.638 Y90.819 E623.21709
G1 X136.543 Y90.983 E623.23983
G1 X135.562 Y92.186 E623.42611
G1 X134.659 Y93.501 E623.61753
G1 X133.89 Y94.839 E623.80272
G1 X133.219 Y96.261 E623.9914
G1 X132.674 Y97.703 E624.17639
G1 X132.24 Y99.208 E624.36435
G1 X131.929 Y100.731 E624.55088
G1 X131.742 Y102.277 E624.73775
G1 X131.678 Y103.858 E624.92763
G1 X131.678 Y118.81 E626.72187
G1 X131.742 Y120.391 E626.91174
G1 X131.929 Y121.937 E627.09862
G1 X132.24 Y123.459 E627.28503
G1 X132.674 Y124.965 E627.47311
G1 X133.219 Y126.406 E627.65798
G1 X133.89 Y127.828 E627.84666
G1 X134.659 Y129.166 E628.03185
G1 X135.562 Y130.481 E628.22328
G1 X136.543 Y131.684 E628.40955
G1 X136.648 Y131.875 E628.4357
G1 X136.678 Y132.063 E628.45855
G1 X136.678 Y162.062 E632.05843
G1 X136.638 Y162.277 E632.08467
G1 X136.525 Y162.463 E632.11079
G1 X136.352 Y162.596 E632.13697
G1 X136.078 Y162.662 E632.17079
G1 X111.079 Y162.662 E635.17067
G1 X110.864 Y162.622 E635.19692
G1 X110.678 Y162.509 E635.22303
G1 X110.545 Y162.336 E635.24922
G1 X110.479 Y162.062 E635.28304
G1 X110.479 Y132.063 E638.88292
G1 X110.519 Y131.848 E638.90916
G1 X110.613 Y131.685 E638.93174
G1 X111.595 Y130.475 E639.11874
G1 X112.497 Y129.168 E639.30931
G1 X113.272 Y127.818 E639.4961
G1 X113.934 Y126.417 E639.68205
G1 X114.487 Y124.954 E639.86973
G1 X114.915 Y123.471 E640.05495
G1 X115.228 Y121.937 E640.24283
G1 X115.415 Y120.391 E640.4297
G1 X115.478 Y118.809 E640.61969
G1 X115.478 Y103.857 E642.41393
G1 X115.415 Y102.275 E642.60392
G1 X115.228 Y100.729 E642.79079
G1 X114.915 Y99.196 E642.97855
G1 X114.487 Y97.713 E643.16377
G1 X113.933 Y96.248 E643.35172
G1 X113.272 Y94.849 E643.5374
G1 X112.492 Y93.491 E643.72532
G1 X111.6 Y92.194 E643.91422
G1 X110.614 Y90.983 E644.10162
G1 X110.509 Y90.791 E644.12788
G1 X110.479 Y90.604 E644.1506
G1 X110.479 Y60.605 E647.75048
G1 X110.519 Y60.39 E647.77672
G1 X110.632 Y60.204 E647.80284
G1 X110.805 Y60.071 E647.82903
G1 X111.079 Y60.005 E647.86285
G0 F3600 X110.879 Y60.605
G1 F1800 X110.918 Y60.486 E647.87787
G1 X111.079 Y60.405 E647.8995
G1 X136.078 Y60.405 E650.89938
G1 X136.197 Y60.444 E650.91441
G1 X136.278 Y60.605 E650.93604
G1 X136.278 Y90.604 E654.53592
G1 X136.233 Y90.73 E654.55197
G1 X135.239 Y91.95 E654.74081
G1 X134.323 Y93.282 E654.9348
G1 X133.533 Y94.657 E655.12509
G1 X132.854 Y96.096 E655.31603
G1 X132.29 Y97.588 E655.50744
G1 X132.288 Y97.592 E655.50797
G1 X131.853 Y99.101 E655.69643
G1 X131.535 Y100.661 E655.88748
G1 X131.342 Y102.254 E656.08004
G1 X131.278 Y103.842 E656.27075
G1 X131.278 Y118.834 E658.06979
G1 X131.342 Y120.413 E658.25943
G1 X131.535 Y122.004 E658.45175
G1 X131.852 Y123.562 E658.64254
G1 X132.288 Y125.076 E658.8316
G1 X132.854 Y126.57 E659.02331
G1 X133.533 Y128.01 E659.21436
G1 X134.323 Y129.385 E659.40466
G1 X135.239 Y130.717 E659.59864
G1 X136.233 Y131.937 E659.78748
G1 X136.278 Y132.063 E659.80354
G1 X136.278 Y162.062 E663.40342
G1 X136.239 Y162.181 E663.41845
G1 X136.078 Y162.262 E663.44007
G1 X111.079 Y162.262 E666.43995
G1 X110.96 Y162.223 E666.45498
G1 X110.879 Y162.062 E666.47661
G1 X110.879 Y132.063 E670.07649
G1 X110.924 Y131.937 E670.09254
G1 X111.912 Y130.719 E670.28074
G1 X112.837 Y129.379 E670.47613
G1 X113.623 Y128.01 E670.66557
G1 X114.303 Y126.57 E670.85666
G1 X114.868 Y125.076 E671.04834
G1 X115.305 Y123.562 E671.23743
G1 X115.622 Y122.004 E671.42822
G1 X115.815 Y120.413 E671.62054
G1 X115.878 Y118.825 E671.81125
G1 X115.878 Y103.833 E673.61029
G1 X115.815 Y102.253 E673.80004
G1 X115.622 Y100.659 E673.99272
G1 X115.304 Y99.101 E674.18354
G1 X114.868 Y97.591 E674.37214
G1 X114.302 Y96.095 E674.56408
G1 X113.623 Y94.657 E674.75491
G1 X112.833 Y93.281 E674.9453
G1 X111.917 Y91.95 E675.13919
G1 X110.924 Y90.73 E675.32796
G1 X110.879 Y90.604 E675.34401
G1 X110.879 Y60.605 E678.94389
G10
G0 F3600 X111.693 Y61.219
G0 X111.749 Y61.275
G0 X111.679 Y61.205
;TYPE:WALL-INNER
G11
G1 F1800 X135.478 Y61.205 E681.79977
G1 X135.478 Y90.393 E685.30233
G1 X134.584 Y91.491 E685.47224
G1 X133.648 Y92.854 E685.67066
G1 X132.823 Y94.288 E685.86918
G1 X132.117 Y95.784 E686.06769
G1 X131.531 Y97.331 E686.2662
G1 X131.073 Y98.918 E686.46441
G1 X130.743 Y100.54 E686.66304
G1 X130.544 Y102.182 E686.86152
G1 X130.478 Y103.822 E687.05848
G1 X130.478 Y118.845 E688.86124
G1 X130.544 Y120.485 E689.0582
G1 X130.743 Y122.128 E689.2568
G1 X131.073 Y123.748 E689.4552
G1 X131.531 Y125.337 E689.65364
G1 X132.117 Y126.883 E689.85204
G1 X132.823 Y128.379 E690.05054
G1 X133.648 Y129.813 E690.24907
G1 X134.584 Y131.176 E690.44748
G1 X135.478 Y132.274 E690.61739
G1 X135.478 Y161.462 E694.11995
G1 X111.679 Y161.462 E696.97583
G1 X111.679 Y132.275 E700.47827
G1 X112.572 Y131.176 E700.6482
G1 X113.509 Y129.813 E700.84668
G1 X114.333 Y128.379 E701.04515
G1 X115.04 Y126.883 E701.24371
G1 X115.625 Y125.337 E701.44206
G1 X116.084 Y123.749 E701.64043
G1 X116.414 Y122.128 E701.83894
G1 X116.613 Y120.485 E702.03754
G1 X116.678 Y118.845 E702.23449
G1 X116.678 Y103.822 E704.03725
G1 X116.613 Y102.182 E704.23421
G1 X116.414 Y100.54 E704.43269
G1 X116.084 Y98.918 E704.63131
G1 X115.625 Y97.331 E704.82956
G1 X115.04 Y95.784 E705.02803
G1 X114.333 Y94.288 E705.22659
G1 X113.509 Y92.854 E705.42505
G1 X112.572 Y91.491 E705.62353
G1 X111.679 Y90.392 E705.79346
G1 X111.679 Y61.205 E709.2959
G0 F3600 X111.279 Y60.805
;TYPE:WALL-OUTER
G1 F1800 X135.878 Y60.805 E712.24778
G1 X135.878 Y90.534 E715.81526
G1 X134.905 Y91.731 E716.00037
G1 X133.987 Y93.067 E716.19489
G1 X133.178 Y94.473 E716.38955
G1 X132.485 Y95.94 E716.58424
G1 X131.911 Y97.457 E716.77888
G1 X131.462 Y99.014 E716.97333
G1 X131.138 Y100.604 E717.16805
G1 X130.943 Y102.214 E717.36266
G1 X130.878 Y103.83 E717.55674
G1 X130.878 Y118.837 E719.35758
G1 X130.943 Y120.453 E719.55166
G1 X131.138 Y122.064 E719.74639
G1 X131.462 Y123.653 E719.94099
G1 X131.911 Y125.211 E720.13556
G1 X132.485 Y126.727 E720.33008
G1 X133.178 Y128.194 E720.52478
G1 X133.987 Y129.6 E720.71943
G1 X134.905 Y130.936 E720.91395
G1 X135.878 Y132.133 E721.09906
G1 X135.878 Y161.862 E724.66654
G1 X111.279 Y161.862 E727.61842
G1 X111.279 Y132.133 E731.1859
G1 X112.251 Y130.936 E731.37093
G1 X113.17 Y129.6 E731.56552
G1 X113.978 Y128.194 E731.76012
G1 X114.672 Y126.727 E731.95486
G1 X115.245 Y125.211 E732.14934
G1 X115.695 Y123.653 E732.34395
G1 X116.019 Y122.064 E732.53855
G1 X116.214 Y120.453 E732.73328
G1 X116.278 Y118.837 E732.92735
G1 X116.278 Y103.83 E734.72819
G1 X116.214 Y102.214 E734.92226
G1 X116.019 Y100.604 E735.11688
G1 X115.695 Y99.014 E735.3116
G1 X115.245 Y97.457 E735.50608
G1 X114.672 Y95.94 E735.70068
G1 X113.978 Y94.473 E735.89542
G1 X113.17 Y93.067 E736.09002
G1 X112.251 Y91.731 E736.28461
G1 X111.279 Y90.534 E736.46964
G1 X111.279 Y60.805 E740.03712
G0 F3600 X111.479 Y60.805
G0 X111.749 Y61.275
G0 X111.857 Y61.511
;TYPE:SKIN
G1 F1800 X135.297 Y84.951 E744.01502
G0 X135.367 Y85.021
G0 F3600 X135.297 Y85.516
G1 F1800 X111.857 Y62.077 E747.99283
G0 X111.787 Y62.007
G0 F3600 X111.857 Y62.643
G1 F1800 X135.297 Y86.082 E751.97065
G0 X135.367 Y86.152
G0 F3600 X135.297 Y86.648
G1 F1800 X111.857 Y63.208 E755.94855
G0 X111.787 Y63.138
G0 F3600 X111.857 Y63.774
G1 F1800 X135.297 Y87.213 E759.92636
G0 X135.367 Y87.283
G0 F3600 X135.297 Y87.779
G1 F1800 X111.857 Y64.34 E763.90418
G0 X111.787 Y64.27
G0 F3600 X111.857 Y64.906
G1 F1800 X135.297 Y88.345 E767.88199
G0 X135.367 Y88.415
G0 F3600 X135.297 Y88.91
G1 F1800 X111.857 Y65.471 E771.85981
G0 X111.787 Y65.401
G0 F3600 X111.857 Y66.037
G1 F1800 X135.297 Y89.476 E775.83763
G0 X135.367 Y89.546
G0 F3600 X135.297 Y90.042
G1 F1800 X111.857 Y66.603 E779.81544
G0 X111.787 Y66.533
G0 F3600 X111.857 Y67.168
G1 F1800 X135.172 Y90.483 E783.77213
G0 X135.242 Y90.553
G0 F3600 X134.918 Y90.795
G1 F1800 X111.857 Y67.734 E787.68571
G0 X111.787 Y67.664
G0 F3600 X111.857 Y68.3
G1 F1800 X134.664 Y91.107 E791.55618
G0 X134.734 Y91.177
G0 F3600 X134.413 Y91.421
G1 F1800 X111.857 Y68.865 E795.38406
G0 X111.787 Y68.795
G0 F3600 X111.857 Y69.431
G1 F1800 X134.182 Y91.756 E799.17274
G0 X134.252 Y91.826
G0 F3600 X133.952 Y92.092
G1 F1800 X111.857 Y69.997 E802.92239
G0 X111.787 Y69.927
G0 F3600 X111.857 Y70.562
G1 F1800 X133.722 Y92.427 E806.633
G0 X133.792 Y92.497
G0 F3600 X133.492 Y92.763
G1 F1800 X111.857 Y71.128 E810.30458
G0 X111.787 Y71.058
G0 F3600 X111.857 Y71.694
G1 F1800 X133.286 Y93.122 E813.94112
G0 X133.356 Y93.192
G0 F3600 X133.078 Y93.48
G1 F1800 X111.857 Y72.259 E817.54244
G0 X111.787 Y72.189
G0 F3600 X111.857 Y72.825
G1 F1800 X132.872 Y93.84 E821.10881
G0 X132.942 Y93.91
G0 F3600 X132.665 Y94.199
G1 F1800 X111.857 Y73.391 E824.64004
G0 X111.787 Y73.321
G0 F3600 X111.857 Y73.957
G1 F1800 X132.484 Y94.583 E828.14048
G0 X132.554 Y94.653
G0 F3600 X132.303 Y94.967
G1 F1800 X111.857 Y74.522 E831.61019
G0 X111.787 Y74.452
G0 F3600 X111.857 Y75.088
G1 F1800 X132.122 Y95.352 E835.04919
G0 X132.192 Y95.422
G0 F3600 X131.941 Y95.738
G1 F1800 X111.857 Y75.654 E838.45756
G0 X111.787 Y75.584
G0 F3600 X111.857 Y76.219
G1 F1800 X131.787 Y96.148 E841.83971
G0 X131.857 Y96.218
G0 F3600 X131.631 Y96.558
G1 F1800 X111.857 Y76.785 E845.19538
G0 X111.787 Y76.715
G0 F3600 X111.857 Y77.351
G1 F1800 X131.475 Y96.969 E848.52467
G0 X131.545 Y97.039
G0 F3600 X131.327 Y97.386
G1 F1800 X111.857 Y77.916 E851.82884
G0 X111.787 Y77.846
G0 F3600 X111.857 Y78.482
G1 F1800 X131.2 Y97.825 E855.11145
G0 X131.27 Y97.895
G0 F3600 X131.074 Y98.265
G1 F1800 X111.857 Y79.048 E858.37268
G0 X111.787 Y78.978
G0 F3600 X111.857 Y79.613
G1 F1800 X130.948 Y98.704 E861.61253
G0 X131.018 Y98.774
G0 F3600 X130.84 Y99.161
G1 F1800 X111.857 Y80.179 E864.83397
G0 X111.787 Y80.109
G0 F3600 X111.857 Y80.745
G1 F1800 X130.744 Y99.632 E868.0392
G0 X130.814 Y99.702
G0 F3600 X130.648 Y100.101
G1 F1800 X111.857 Y81.31 E871.22814
G0 X111.787 Y81.24
G0 F3600 X111.857 Y81.876
G1 F1800 X130.557 Y100.576 E874.40164
G0 X130.627 Y100.646
G0 F3600 X130.495 Y101.08
G1 F1800 X111.857 Y82.442 E877.56461
G0 X111.787 Y82.372
G0 F3600 X111.857 Y83.007
G1 F1800 X130.434 Y101.584 E880.71723
G0 X130.504 Y101.654
G0 F3600 X130.372 Y102.088
G1 F1800 X111.857 Y83.573 E883.85933
G0 X111.787 Y83.503
G0 F3600 X111.857 Y84.139
G1 F1800 X130.345 Y102.626 E886.99676
G0 X130.415 Y102.696
G0 F3600 X130.323 Y103.17
G1 F1800 X111.857 Y84.705 E890.13046
G0 X111.787 Y84.635
G0 F3600 X111.857 Y85.27
G1 F1800 X130.301 Y103.714 E893.26051
G0 X130.371 Y103.784
G0 F3600 X130.297 Y104.275
G1 F1800 X111.857 Y85.836 E896.3898
G0 X111.787 Y85.766
G0 F3600 X111.857 Y86.402
G1 F1800 X130.297 Y104.841 E899.51909
G0 X130.367 Y104.911
G0 F3600 X130.297 Y105.406
G1 F1800 X111.857 Y86.967 E902.64837
G0 X111.787 Y86.897
G0 F3600 X111.857 Y87.533
G1 F1800 X130.297 Y105.972 E905.77766
G0 X130.367 Y106.042
G0 F3600 X130.297 Y106.538
G1 F1800 X111.857 Y88.099 E908.90695
G0 X111.787 Y88.029
G0 F3600 X111.857 Y88.664
G1 F1800 X130.297 Y107.104 E912.03632
G0 X130.367 Y107.174
G0 F3600 X130.297 Y107.669
G1 F1800 X111.857 Y89.23 E915.16561
G0 X111.787 Y89.16
G0 F3600 X111.857 Y89.796
G1 F1800 X130.297 Y108.235 E918.29489
G0 X130.367 Y108.305
G0 F3600 X130.297 Y108.801
G1 F1800 X112.004 Y90.508 E921.39932
G0 X111.934 Y90.438
G0 F3600 X113.6 Y92.67
G1 F1800 X130.297 Y109.366 E924.23281
G0 X130.367 Y109.436
G0 F3600 X130.297 Y109.932
G1 F1800 X114.385 Y94.021 E926.93308
G0 X114.315 Y93.951
G0 F3600 X114.927 Y95.128
G1 F1800 X130.297 Y110.498 E929.54145
G0 X130.367 Y110.568
G0 F3600 X130.297 Y111.063
G1 F1800 X115.36 Y96.127 E932.07626
G0 X115.29 Y96.057
G0 F3600 X115.706 Y97.039
G1 F1800 X130.297 Y111.629 E934.55235
G0 X130.367 Y111.699
G0 F3600 X130.297 Y112.195
G1 F1800 X115.965 Y97.863 E936.98457
G0 X115.895 Y97.793
G0 F3600 X116.195 Y98.659
G1 F1800 X130.297 Y112.76 E939.37768
G0 X130.367 Y112.83
G0 F3600 X130.297 Y113.326
G1 F1800 X116.362 Y99.392 E941.74244
G0 X116.292 Y99.322
G0 F3600 X116.507 Y100.102
G1 F1800 X130.297 Y113.892 E944.08268
G0 X130.367 Y113.962
G0 F3600 X130.297 Y114.457
G1 F1800 X116.624 Y100.785 E946.40298
G0 X116.554 Y100.715
G0 F3600 X116.703 Y101.429
G1 F1800 X130.297 Y115.023 E948.70996
G0 X130.367 Y115.093
G0 F3600 X130.297 Y115.589
G1 F1800 X116.78 Y102.072 E951.00387
G0 X116.71 Y102.002
G0 F3600 X116.811 Y102.669
G1 F1800 X130.297 Y116.155 E953.29252
G0 X130.367 Y116.225
G0 F3600 X130.297 Y116.72
G1 F1800 X116.835 Y103.258 E955.5771
G0 X116.765 Y103.188
G0 F3600 X116.857 Y103.846
G1 F1800 X130.297 Y117.286 E957.85794
G0 X130.367 Y117.356
G0 F3600 X130.297 Y117.852
G1 F1800 X116.857 Y104.412 E960.13879
G0 X116.787 Y104.342
G0 F3600 X116.857 Y104.977
G1 F1800 X130.297 Y118.417 E962.41963
G0 X130.367 Y118.487
G0 F3600 X130.302 Y118.989
G1 F1800 X116.857 Y105.543 E964.70141
G0 X116.787 Y105.473
G0 F3600 X116.857 Y106.109
G1 F1800 X130.326 Y119.578 E966.98717
G0 X130.396 Y119.648
G0 F3600 X130.35 Y120.167
G1 F1800 X116.857 Y106.674 E969.27701
G0 X116.787 Y106.604
G0 F3600 X116.857 Y107.24
G1 F1800 X130.397 Y120.78 E971.57482
G0 X130.467 Y120.85
G0 F3600 X130.476 Y121.425
G1 F1800 X116.857 Y107.806 E973.88604
G0 X116.787 Y107.736
G0 F3600 X116.857 Y108.371
G1 F1800 X130.554 Y122.069 E976.21059
G0 X130.624 Y122.139
G0 F3600 X130.69 Y122.77
G1 F1800 X116.857 Y108.937 E978.55812
G0 X116.787 Y108.867
G0 F3600 X116.857 Y109.503
G1 F1800 X130.835 Y123.481 E980.93027
G0 X130.905 Y123.551
G0 F3600 X131.027 Y124.239
G1 F1800 X116.857 Y110.068 E983.33508
G0 X116.787 Y109.998
G0 F3600 X116.857 Y110.634
G1 F1800 X131.255 Y125.033 E985.77859
G0 X131.325 Y125.103
G0 F3600 X131.548 Y125.891
G1 F1800 X116.857 Y111.2 E988.27174
G0 X116.787 Y111.13
G0 F3600 X116.857 Y111.766
G1 F1800 X131.893 Y126.802 E990.82343
G0 X131.963 Y126.872
G0 F3600 X132.372 Y127.847
G1 F1800 X116.857 Y112.331 E993.4565
G0 X116.787 Y112.261
G0 F3600 X116.857 Y112.897
G1 F1800 X132.988 Y129.028 E996.19402
G0 X133.058 Y129.098
G0 F3600 X133.911 Y130.517
G1 F1800 X116.857 Y113.463 E999.08818
G0 X116.787 Y113.393
G0 F3600 X116.857 Y114.028
G1 F1800 X135.297 Y132.469 E1002.21763
G0 X135.367 Y132.539
G0 F3600 X135.297 Y133.035
G1 F1800 X116.857 Y114.594 E1005.34709
G0 X116.787 Y114.524
G0 F3600 X116.857 Y115.16
G1 F1800 X135.297 Y133.6 E1008.47646
G0 X135.367 Y133.67
G0 F3600 X135.297 Y134.166
G1 F1800 X116.857 Y115.725 E1011.60592
G0 X116.787 Y115.655
G0 F3600 X116.857 Y116.291
G1 F1800 X135.297 Y134.732 E1014.73538
G0 X135.367 Y134.802
G0 F3600 X135.297 Y135.297
G1 F1800 X116.857 Y116.857 E1017.86475
G0 X116.787 Y116.787
G0 F3600 X116.857 Y117.422
G1 F1800 X135.297 Y135.863 E1020.9942
G0 X135.367 Y135.933
G0 F3600 X135.297 Y136.429
G1 F1800 X116.857 Y117.988 E1024.12366
G0 X116.787 Y117.918
G0 F3600 X116.857 Y118.554
G1 F1800 X135.297 Y136.994 E1027.25303
G0 X135.367 Y137.064
G0 F3600 X135.297 Y137.56
G1 F1800 X116.847 Y119.11 E1030.3841
G0 X116.777 Y119.04
G0 F3600 X116.826 Y119.654
G1 F1800 X135.297 Y138.126 E1033.51882
G0 X135.367 Y138.196
G0 F3600 X135.297 Y138.691
G1 F1800 X116.804 Y120.198 E1036.65719
G0 X116.734 Y120.128
G0 F3600 X116.765 Y120.725
G1 F1800 X135.297 Y139.257 E1039.80217
G0 X135.367 Y139.327
G0 F3600 X135.297 Y139.823
G1 F1800 X116.703 Y121.229 E1042.95768
G0 X116.633 Y121.159
G0 F3600 X116.642 Y121.734
G1 F1800 X135.297 Y140.388 E1046.12345
G0 X135.367 Y140.458
G0 F3600 X135.297 Y140.954
G1 F1800 X116.575 Y122.232 E1049.30068
G0 X116.505 Y122.162
G0 F3600 X116.479 Y122.702
G1 F1800 X135.297 Y141.52 E1052.4942
G0 X135.367 Y141.59
G0 F3600 X135.297 Y142.086
G1 F1800 X116.384 Y123.172 E1055.70393
G0 X116.314 Y123.102
G0 F3600 X116.287 Y123.641
G1 F1800 X135.297 Y142.651 E1058.93003
G0 X135.367 Y142.721
G0 F3600 X135.297 Y143.217
G1 F1800 X116.171 Y124.09 E1062.17591
G0 X116.101 Y124.02
G0 F3600 X116.044 Y124.529
G1 F1800 X135.297 Y143.783 E1065.44333
G0 X135.367 Y143.853
G0 F3600 X135.297 Y144.348
G1 F1800 X115.917 Y124.968 E1068.73223
G0 X115.847 Y124.898
G0 F3600 X115.79 Y125.406
G1 F1800 X135.297 Y144.914 E1072.04276
G0 X135.367 Y144.984
G0 F3600 X135.297 Y145.48
G1 F1800 X115.634 Y125.816 E1075.37977
G0 X115.564 Y125.746
G0 F3600 X115.479 Y126.227
G1 F1800 X135.297 Y146.045 E1078.74299
G0 X135.367 Y146.115
G0 F3600 X135.297 Y146.611
G1 F1800 X115.324 Y126.637 E1082.13261
G0 X115.254 Y126.567
G0 F3600 X115.162 Y127.042
G1 F1800 X135.297 Y147.177 E1085.54963
G0 X135.367 Y147.247
G0 F3600 X135.297 Y147.742
G1 F1800 X114.981 Y127.426 E1088.99737
G0 X114.911 Y127.356
G0 F3600 X114.799 Y127.81
G1 F1800 X135.297 Y148.308 E1092.476
G0 X135.367 Y148.378
G0 F3600 X135.297 Y148.874
G1 F1800 X114.618 Y128.194 E1095.98542
G0 X114.548 Y128.124
G0 F3600 X114.428 Y128.571
G1 F1800 X135.297 Y149.439 E1099.52693
G0 X135.367 Y149.509
G0 F3600 X135.297 Y150.005
G1 F1800 X114.223 Y128.931 E1103.1033
G0 X114.153 Y128.861
G0 F3600 X114.016 Y129.29
G1 F1800 X135.297 Y150.571 E1106.71481
G0 X135.367 Y150.641
G0 F3600 X135.297 Y151.137
G1 F1800 X113.81 Y129.649 E1110.36136
G0 X113.74 Y129.579
G0 F3600 X113.596 Y130.001
G1 F1800 X135.297 Y151.702 E1114.04414
G0 X135.367 Y151.772
G0 F3600 X135.297 Y152.268
G1 F1800 X113.366 Y130.336 E1117.76604
G0 X113.296 Y130.266
G0 F3600 X113.136 Y130.672
G1 F1800 X135.297 Y152.834 E1121.52697
G0 X135.367 Y152.904
G0 F3600 X135.297 Y153.399
G1 F1800 X112.905 Y131.007 E1125.32702
G0 X112.835 Y130.937
G0 F3600 X112.67 Y131.338
G1 F1800 X135.297 Y153.965 E1129.16695
G0 X135.367 Y154.035
G0 F3600 X135.297 Y154.531
G1 F1800 X112.417 Y131.65 E1133.0499
G0 X112.347 Y131.58
G0 F3600 X112.163 Y131.962
G1 F1800 X135.297 Y155.096 E1136.97587
G0 X135.367 Y155.166
G0 F3600 X135.297 Y155.662
G1 F1800 X111.91 Y132.274 E1140.94486
G0 X111.84 Y132.204
G0 F3600 X111.858 Y132.788
G1 F1800 X135.297 Y156.228 E1144.92267
G0 X135.367 Y156.298
G0 F3600 X135.297 Y156.793
G1 F1800 X111.858 Y133.354 E1148.9004
G0 X111.788 Y133.284
G0 F3600 X111.858 Y133.92
G1 F1800 X135.297 Y157.359 E1152.87813
G0 X135.367 Y157.429
G0 F3600 X135.297 Y157.925
G1 F1800 X111.858 Y134.486 E1156.85586
G0 X111.788 Y134.416
G0 F3600 X111.858 Y135.051
G1 F1800 X135.297 Y158.49 E1160.83359
G0 X135.367 Y158.56
G0 F3600 X135.297 Y159.056
G1 F1800 X111.858 Y135.617 E1164.81132
G0 X111.788 Y135.547
G0 F3600 X111.858 Y136.183
G1 F1800 X135.297 Y159.622 E1168.78905
G0 X135.367 Y159.692
G0 F3600 X135.297 Y160.187
G1 F1800 X111.858 Y136.748 E1172.76678
G0 X111.788 Y136.678
G0 F3600 X111.858 Y137.314
G1 F1800 X135.297 Y160.753 E1176.74451
G0 X135.367 Y160.823
G0 F3600 X135.259 Y161.281
G1 F1800 X111.858 Y137.88 E1180.7158
G0 X111.788 Y137.81
G0 F3600 X111.858 Y138.445
G1 F1800 X134.693 Y161.281 E1184.59111
G0 X134.763 Y161.351
G0 F3600 X134.128 Y161.281
G1 F1800 X111.858 Y139.011 E1188.37045
G0 X111.788 Y138.941
G0 F3600 X111.858 Y139.577
G1 F1800 X133.562 Y161.281 E1192.05374
G0 X133.632 Y161.351
G0 F3600 X132.996 Y161.281
G1 F1800 X111.858 Y140.142 E1195.64107
G0 X111.788 Y140.072
G0 F3600 X111.858 Y140.708
G1 F1800 X132.431 Y161.281 E1199.13242
G0 X132.501 Y161.351
G0 F3600 X131.865 Y161.281
G1 F1800 X111.858 Y141.274 E1202.52772
G0 X111.788 Y141.204
G0 F3600 X111.858 Y141.839
G1 F1800 X131.299 Y161.281 E1205.82705
G0 X131.369 Y161.351
G0 F3600 X130.734 Y161.281
G1 F1800 X111.858 Y142.405 E1209.03042
G0 X111.788 Y142.335
G0 F3600 X111.858 Y142.971
G1 F1800 X130.168 Y161.281 E1212.13773
G0 X130.238 Y161.351
G0 F3600 X129.602 Y161.281
G1 F1800 X111.858 Y143.537 E1215.14898
G0 X111.788 Y143.467
G0 F3600 X111.858 Y144.102
G1 F1800 X129.037 Y161.281 E1218.06436
G0 X129.107 Y161.351
G0 F3600 X128.471 Y161.281
G1 F1800 X111.858 Y144.668 E1220.88368
G0 X111.788 Y144.598
G0 F3600 X111.858 Y145.234
G1 F1800 X127.905 Y161.281 E1223.60694
G0 X127.975 Y161.351
G0 F3600 X127.34 Y161.281
G1 F1800 X111.858 Y145.799 E1226.23432
G0 X111.788 Y145.729
G0 F3600 X111.858 Y146.365
G1 F1800 X126.774 Y161.281 E1228.76565
G0 X126.844 Y161.351
G0 F3600 X126.208 Y161.281
G1 F1800 X111.858 Y146.931 E1231.20093
G0 X111.788 Y146.861
G0 F3600 X111.858 Y147.496
G1 F1800 X125.642 Y161.281 E1233.54024
G0 X125.712 Y161.351
G0 F3600 X125.077 Y161.281
G1 F1800 X111.858 Y148.062 E1235.78357
G0 X111.788 Y147.992
G0 F3600 X111.858 Y148.628
G1 F1800 X124.511 Y161.281 E1237.93086
G0 X124.581 Y161.351
G0 F3600 X123.945 Y161.281
G1 F1800 X111.858 Y149.193 E1239.98218
G0 X111.788 Y149.123
G0 F3600 X111.858 Y149.759
G1 F1800 X123.38 Y161.281 E1241.93753
G0 X123.45 Y161.351
G0 F3600 X122.814 Y161.281
G1 F1800 X111.858 Y150.325 E1243.79682
G0 X111.788 Y150.255
G0 F3600 X111.858 Y150.89
G1 F1800 X122.248 Y161.281 E1245.56015
G0 X122.318 Y161.351
G0 F3600 X121.683 Y161.281
G1 F1800 X111.858 Y151.456 E1247.2275
G0 X111.788 Y151.386
G0 F3600 X111.858 Y152.022
G1 F1800 X121.117 Y161.281 E1248.79881
G0 X121.187 Y161.351
G0 F3600 X120.551 Y161.281
G1 F1800 X111.858 Y152.587 E1250.27414
G0 X111.788 Y152.517
G0 F3600 X111.858 Y153.153
G1 F1800 X119.986 Y161.281 E1251.65351
G0 X120.056 Y161.351
G0 F3600 X119.42 Y161.281
G1 F1800 X111.858 Y153.719 E1252.93683
G0 X111.788 Y153.649
G0 F3600 X111.858 Y154.285
G1 F1800 X118.854 Y161.281 E1254.12409
G0 X118.924 Y161.351
G0 F3600 X118.289 Y161.281
G1 F1800 X111.858 Y154.85 E1255.21546
G0 X111.788 Y154.78
G0 F3600 X111.858 Y155.416
G1 F1800 X117.723 Y161.281 E1256.21079
G0 X117.793 Y161.351
G0 F3600 X117.157 Y161.281
G1 F1800 X111.858 Y155.982 E1257.11006
G0 X111.788 Y155.912
G0 F3600 X111.858 Y156.547
G1 F1800 X116.592 Y161.281 E1257.91344
G0 X116.662 Y161.351
G0 F3600 X116.026 Y161.281
G1 F1800 X111.858 Y157.113 E1258.62078
G0 X111.788 Y157.043
G0 F3600 X111.858 Y157.679
G1 F1800 X115.46 Y161.281 E1259.23206
G0 X115.53 Y161.351
G0 F3600 X114.894 Y161.281
G1 F1800 X111.858 Y158.244 E1259.74737
G0 X111.788 Y158.174
G0 F3600 X111.858 Y158.81
G1 F1800 X114.329 Y161.281 E1260.16671
G0 X114.399 Y161.351
G0 F3600 X113.763 Y161.281
G1 F1800 X111.858 Y159.376 E1260.49
G0 X111.788 Y159.306
G0 F3600 X111.858 Y159.941
G1 F1800 X113.197 Y161.281 E1260.71732
G0 X113.267 Y161.351
G0 F3600 X112.632 Y161.281
G1 F1800 X111.858 Y160.507 E1260.84867
G0 X111.788 Y160.437
G0 F3600 X111.858 Y161.073
G1 F1800 X112.066 Y161.281 E1260.88397
G0 F3600 X135.297 Y84.385
G1 F1800 X112.297 Y61.385 E1264.7872
G0 X112.227 Y61.315
G0 F3600 X112.862 Y61.385
G1 F1800 X135.297 Y83.819 E1268.59446
G0 X135.367 Y83.889
G0 F3600 X135.297 Y83.254
G1 F1800 X113.428 Y61.385 E1272.30575
G0 X113.358 Y61.315
G0 F3600 X113.994 Y61.385
G1 F1800 X135.297 Y82.688 E1275.92099
G0 X135.367 Y82.758
G0 F3600 X135.297 Y82.122
G1 F1800 X114.559 Y61.385 E1279.44026
G0 X114.489 Y61.315
G0 F3600 X115.125 Y61.385
G1 F1800 X135.297 Y81.556 E1282.86348
G0 X135.367 Y81.626
G0 F3600 X135.297 Y80.991
G1 F1800 X115.691 Y61.385 E1286.19073
G0 X115.621 Y61.315
G0 F3600 X116.256 Y61.385
G1 F1800 X135.297 Y80.425 E1289.42201
G0 X135.367 Y80.495
G0 F3600 X135.297 Y79.859
G1 F1800 X116.822 Y61.385 E1292.55723
G0 X116.752 Y61.315
G0 F3600 X117.388 Y61.385
G1 F1800 X135.297 Y79.294 E1295.59649
G0 X135.367 Y79.364
G0 F3600 X135.297 Y78.728
G1 F1800 X117.953 Y61.385 E1298.53978
G0 X117.883 Y61.315
G0 F3600 X118.519 Y61.385
G1 F1800 X135.297 Y78.162 E1301.38702
G0 X135.367 Y78.232
G0 F3600 X135.297 Y77.597
G1 F1800 X119.085 Y61.385 E1304.13829
G0 X119.015 Y61.315
G0 F3600 X119.65 Y61.385
G1 F1800 X135.297 Y77.031 E1306.79359
G0 X135.367 Y77.101
G0 F3600 X135.297 Y76.465
G1 F1800 X120.216 Y61.385 E1309.35283
G0 X120.146 Y61.315
G0 F3600 X120.782 Y61.385
G1 F1800 X135.297 Y75.9 E1311.81611
G0 X135.367 Y75.97
G0 F3600 X135.297 Y75.334
G1 F1800 X121.348 Y61.385 E1314.18333
G0 X121.278 Y61.315
G0 F3600 X121.913 Y61.385
G1 F1800 X135.297 Y74.768 E1316.45459
G0 X135.367 Y74.838
G0 F3600 X135.297 Y74.203
G1 F1800 X122.479 Y61.385 E1318.62987
G0 X122.409 Y61.315
G0 F3600 X123.045 Y61.385
G1 F1800 X135.297 Y73.637 E1320.70911
G0 X135.367 Y73.707
G0 F3600 X135.297 Y73.071
G1 F1800 X123.61 Y61.385 E1322.69237
G0 X123.54 Y61.315
G0 F3600 X124.176 Y61.385
G1 F1800 X135.297 Y72.506 E1324.57967
G0 X135.367 Y72.576
G0 F3600 X135.297 Y71.94
G1 F1800 X124.742 Y61.385 E1326.37091
G0 X124.672 Y61.315
G0 F3600 X125.307 Y61.385
G1 F1800 X135.297 Y71.374 E1328.06619
G0 X135.367 Y71.444
G0 F3600 X135.297 Y70.808
G1 F1800 X125.873 Y61.385 E1329.66541
G0 X125.803 Y61.315
G0 F3600 X126.439 Y61.385
G1 F1800 X135.297 Y70.243 E1331.16866
G0 X135.367 Y70.313
G0 F3600 X135.297 Y69.677
G1 F1800 X127.004 Y61.385 E1332.57594
G0 X126.934 Y61.315
G0 F3600 X127.57 Y61.385
G1 F1800 X135.297 Y69.111 E1333.88717
G0 X135.367 Y69.181
G0 F3600 X135.297 Y68.546
G1 F1800 X128.136 Y61.385 E1335.10244
G0 X128.066 Y61.315
G0 F3600 X128.701 Y61.385
G1 F1800 X135.297 Y67.98 E1336.22173
G0 X135.367 Y68.05
G0 F3600 X135.297 Y67.414
G1 F1800 X129.267 Y61.385 E1337.24497
G0 X129.197 Y61.315
G0 F3600 X129.833 Y61.385
G1 F1800 X135.297 Y66.849 E1338.17224
G0 X135.367 Y66.919
G0 F3600 X135.297 Y66.283
G1 F1800 X130.398 Y61.385 E1339.00354
G0 X130.328 Y61.315
G0 F3600 X130.964 Y61.385
G1 F1800 X135.297 Y65.717 E1339.73879
G0 X135.367 Y65.787
G0 F3600 X135.297 Y65.152
G1 F1800 X131.53 Y61.385 E1340.37807
G0 X131.46 Y61.315
G0 F3600 X132.096 Y61.385
G1 F1800 X135.297 Y64.586 E1340.9213
G0 X135.367 Y64.656
G0 F3600 X135.297 Y64.02
G1 F1800 X132.661 Y61.385 E1341.36856
G0 X132.591 Y61.315
G0 F3600 X133.227 Y61.385
G1 F1800 X135.297 Y63.455 E1341.71985
G0 X135.367 Y63.525
G0 F3600 X135.297 Y62.889
G1 F1800 X133.793 Y61.385 E1341.97509
G0 X133.723 Y61.315
G0 F3600 X134.358 Y61.385
G1 F1800 X135.297 Y62.323 E1342.13436
G0 X135.367 Y62.393
G0 F3600 X135.297 Y61.757
G1 F1800 X134.924 Y61.385 E1342.19757
G0 F3600 X134.924 Y61.605
;TIME_ELAPSED:384.415813
;LAYER:1