;FLAVOR:UltiGCode
;TIME:5430
;MATERIAL:7311
;MATERIAL2:0
;NOZZLE_DIAMETER:0.4
;Generated with Cura_SteamEngine 2.4.0

;LAYER_COUNT:28
;LAYER:0
M107
G10
G0 F3600 X104.258 Y56.822 Z0.3
;TYPE:SKIRT
G11
G1 F1800 X104.676 Y56.151 E0.09487
G1 X105.159 Y55.527 E0.18956
G1 X105.702 Y54.954 E0.28429
G1 X106.301 Y54.439 E0.37908
G1 X106.949 Y53.988 E0.47382
G1 X107.64 Y53.604 E0.56868
G1 X108.365 Y53.292 E0.6634
G1 X109.118 Y53.055 E0.75813
G1 X109.892 Y52.896 E0.85295
G1 X110.677 Y52.815 E0.94765
G1 X111.079 Y52.805 E0.9959
G1 X136.078 Y52.805 E3.99578
G1 X136.867 Y52.845 E4.09058
G1 X137.647 Y52.964 E4.18527
G1 X138.412 Y53.162 E4.28009
G1 X139.152 Y53.436 E4.37478
G1 X139.861 Y53.784 E4.46956
G1 X140.532 Y54.202 E4.56443
G1 X141.156 Y54.685 E4.65912
G1 X141.729 Y55.228 E4.75385
G1 X142.244 Y55.827 E4.84864
G1 X142.695 Y56.475 E4.94338
G1 X143.079 Y57.166 E5.03824
G1 X143.391 Y57.891 E5.13296
G1 X143.628 Y58.644 E5.22769
G1 X143.787 Y59.418 E5.32251
G1 X143.868 Y60.203 E5.41721
G1 X143.878 Y60.605 E5.46546
G1 X143.878 Y90.604 E9.06534
G1 X143.838 Y91.393 E9.16014
G1 X143.719 Y92.173 E9.25483
G1 X143.521 Y92.938 E9.34965
G1 X143.247 Y93.678 E9.44434
G1 X142.899 Y94.387 E9.53912
G1 X142.481 Y95.058 E9.63399
G1 X142.124 Y95.532 E9.70519
G1 X141.326 Y96.511 E9.85676
G1 X140.764 Y97.329 E9.97585
G1 X140.269 Y98.19 E10.09503
G1 X139.858 Y99.061 E10.2106
G1 X139.509 Y99.984 E10.32902
G1 X139.237 Y100.927 E10.44679
G1 X139.041 Y101.891 E10.56484
G1 X138.925 Y102.848 E10.68052
G1 X138.878 Y104.002 E10.81911
G1 X138.878 Y118.666 E12.57879
G1 X138.925 Y119.819 E12.71727
G1 X139.04 Y120.774 E12.83269
G1 X139.238 Y121.746 E12.95173
G1 X139.508 Y122.683 E13.06874
G1 X139.856 Y123.603 E13.18678
G1 X140.269 Y124.477 E13.30278
G1 X140.764 Y125.338 E13.42196
G1 X141.326 Y126.156 E13.54105
G1 X142.124 Y127.135 E13.69261
G1 X142.591 Y127.771 E13.7873
G1 X142.992 Y128.452 E13.88213
G1 X143.321 Y129.169 E13.9768
G1 X143.577 Y129.917 E14.07167
G1 X143.755 Y130.686 E14.16639
G1 X143.855 Y131.469 E14.26111
G1 X143.878 Y132.063 E14.33245
G1 X143.878 Y162.062 E17.93233
G1 X143.838 Y162.851 E18.02713
G1 X143.719 Y163.631 E18.12181
G1 X143.521 Y164.396 E18.21664
G1 X143.247 Y165.136 E18.31133
G1 X142.899 Y165.845 E18.40611
G1 X142.481 Y166.516 E18.50097
G1 X141.998 Y167.14 E18.59566
G1 X141.455 Y167.713 E18.69039
G1 X140.856 Y168.228 E18.78519
G1 X140.208 Y168.679 E18.87993
G1 X139.517 Y169.063 E18.97479
G1 X138.792 Y169.375 E19.0695
G1 X138.039 Y169.612 E19.16423
G1 X137.265 Y169.771 E19.25905
G1 X136.48 Y169.852 E19.35375
G1 X136.078 Y169.862 E19.40201
G1 X111.079 Y169.862 E22.40189
G1 X110.29 Y169.822 E22.49669
G1 X109.51 Y169.703 E22.59137
G1 X108.745 Y169.505 E22.6862
G1 X108.005 Y169.231 E22.78089
G1 X107.296 Y168.883 E22.87567
G1 X106.625 Y168.465 E22.97053
G1 X106.001 Y167.982 E23.06522
G1 X105.428 Y167.439 E23.15995
G1 X104.913 Y166.84 E23.25475
G1 X104.462 Y166.192 E23.34949
G1 X104.078 Y165.501 E23.44435
G1 X103.766 Y164.776 E23.53906
G1 X103.529 Y164.023 E23.63379
G1 X103.37 Y163.249 E23.72861
G1 X103.289 Y162.464 E23.82331
G1 X103.279 Y162.062 E23.87157
G1 X103.279 Y132.063 E27.47145
G1 X103.319 Y131.274 E27.56625
G1 X103.438 Y130.494 E27.66093
G1 X103.636 Y129.729 E27.75576
G1 X103.91 Y128.989 E27.85045
G1 X104.258 Y128.28 E27.94523
G1 X104.676 Y127.609 E28.04009
G1 X105.022 Y127.148 E28.10926
G1 X105.833 Y126.148 E28.26376
G1 X106.396 Y125.332 E28.38273
G1 X106.88 Y124.489 E28.49938
G1 X107.303 Y123.594 E28.61817
G1 X107.647 Y122.684 E28.73491
G1 X107.919 Y121.742 E28.85257
G1 X108.117 Y120.774 E28.97113
G1 X108.232 Y119.819 E29.08656
G1 X108.278 Y118.672 E29.22431
G1 X108.278 Y103.994 E30.98567
G1 X108.232 Y102.847 E31.12342
G1 X108.117 Y101.895 E31.23849
G1 X107.919 Y100.923 E31.35753
G1 X107.646 Y99.977 E31.47568
G1 X107.306 Y99.078 E31.59102
G1 X106.881 Y98.18 E31.71024
G1 X106.39 Y97.324 E31.82865
G1 X105.831 Y96.512 E31.94695
G1 X105.031 Y95.529 E32.09904
G1 X104.564 Y94.893 E32.19372
G1 X104.164 Y94.212 E32.2885
G1 X103.834 Y93.494 E32.38332
G1 X103.579 Y92.747 E32.47804
G1 X103.401 Y91.977 E32.57288
G1 X103.301 Y91.194 E32.6676
G1 X103.279 Y90.604 E32.73845
G1 X103.279 Y60.605 E36.33833
G1 X103.319 Y59.816 E36.43313
G1 X103.438 Y59.036 E36.52782
G1 X103.636 Y58.271 E36.62264
G1 X103.91 Y57.531 E36.71733
G1 X104.258 Y56.822 E36.81211
G0 F3600 X104.657 Y56.929
G1 F1800 X105.073 Y56.282 E36.90441
G1 X105.554 Y55.682 E36.99669
G1 X106.095 Y55.135 E37.08901
G1 X106.69 Y54.647 E37.18136
G1 X107.332 Y54.224 E37.27362
G1 X108.015 Y53.869 E37.36599
G1 X108.73 Y53.588 E37.45817
G1 X109.472 Y53.382 E37.55058
G1 X110.23 Y53.254 E37.64283
G1 X111.079 Y53.205 E37.74488
G1 X136.078 Y53.205 E40.74476
G1 X136.846 Y53.245 E40.83704
G1 X137.606 Y53.364 E40.92935
G1 X138.349 Y53.562 E41.02163
G1 X139.068 Y53.836 E41.11396
G1 X139.754 Y54.183 E41.20621
G1 X140.401 Y54.599 E41.29852
G1 X141.001 Y55.08 E41.3908
G1 X141.548 Y55.621 E41.48312
G1 X142.036 Y56.216 E41.57546
G1 X142.459 Y56.858 E41.66772
G1 X142.814 Y57.541 E41.76009
G1 X143.095 Y58.256 E41.85228
G1 X143.301 Y58.998 E41.94468
G1 X143.429 Y59.756 E42.03693
G1 X143.478 Y60.605 E42.13898
G1 X143.478 Y90.604 E45.73886
G1 X143.438 Y91.372 E45.83115
G1 X143.319 Y92.132 E45.92346
G1 X143.121 Y92.875 E46.01573
G1 X142.847 Y93.594 E46.10806
G1 X142.5 Y94.28 E46.20031
G1 X142.084 Y94.927 E46.29262
G1 X141.814 Y95.28 E46.34595
G1 X140.998 Y96.281 E46.50092
G1 X140.425 Y97.115 E46.62235
G1 X139.921 Y97.993 E46.74383
G1 X139.487 Y98.912 E46.86579
G1 X139.126 Y99.865 E46.98808
G1 X138.85 Y100.824 E47.10783
G1 X138.646 Y101.825 E47.23042
G1 X138.525 Y102.821 E47.35082
G1 X138.478 Y103.986 E47.49073
G1 X138.478 Y118.682 E49.25425
G1 X138.525 Y119.847 E49.39417
G1 X138.645 Y120.839 E49.51408
G1 X138.849 Y121.837 E49.63631
G1 X139.13 Y122.813 E49.75819
G1 X139.485 Y123.752 E49.87865
G1 X139.921 Y124.674 E50.00104
G1 X140.425 Y125.552 E50.12253
G1 X140.998 Y126.386 E50.24395
G1 X141.814 Y127.387 E50.39892
G1 X142.268 Y128.008 E50.49124
G1 X142.656 Y128.673 E50.58363
G1 X142.972 Y129.374 E50.6759
G1 X143.214 Y130.104 E50.76819
G1 X143.379 Y130.855 E50.86045
G1 X143.465 Y131.619 E50.95271
G1 X143.478 Y132.063 E51.00602
G1 X143.478 Y162.062 E54.6059
G1 X143.438 Y162.83 E54.69818
G1 X143.319 Y163.59 E54.79049
G1 X143.121 Y164.333 E54.88276
G1 X142.847 Y165.052 E54.9751
G1 X142.5 Y165.738 E55.06735
G1 X142.084 Y166.385 E55.15965
G1 X141.603 Y166.985 E55.25193
G1 X141.062 Y167.532 E55.34425
G1 X140.467 Y168.02 E55.4366
G1 X139.825 Y168.443 E55.52886
G1 X139.142 Y168.798 E55.62123
G1 X138.427 Y169.079 E55.71341
G1 X137.685 Y169.285 E55.80582
G1 X136.927 Y169.413 E55.89807
G1 X136.078 Y169.462 E56.00012
G1 X111.079 Y169.462 E59
G1 X110.311 Y169.422 E59.09228
G1 X109.551 Y169.303 E59.1846
G1 X108.808 Y169.105 E59.27687
G1 X108.089 Y168.831 E59.3692
G1 X107.403 Y168.484 E59.46145
G1 X106.756 Y168.068 E59.55376
G1 X106.156 Y167.587 E59.64604
G1 X105.609 Y167.046 E59.73836
G1 X105.121 Y166.451 E59.8307
G1 X104.698 Y165.809 E59.92296
G1 X104.343 Y165.126 E60.01533
G1 X104.062 Y164.411 E60.10752
G1 X103.856 Y163.669 E60.19993
G1 X103.728 Y162.911 E60.29217
G1 X103.679 Y162.062 E60.39422
G1 X103.679 Y132.063 E63.9941
G1 X103.719 Y131.295 E64.08639
G1 X103.838 Y130.535 E64.1787
G1 X104.036 Y129.792 E64.27097
G1 X104.31 Y129.073 E64.3633
G1 X104.657 Y128.387 E64.45556
G1 X105.073 Y127.74 E64.54786
G1 X105.333 Y127.4 E64.59922
G1 X106.149 Y126.394 E64.75466
G1 X106.737 Y125.543 E64.87879
G1 X107.237 Y124.671 E64.99941
G1 X107.669 Y123.758 E65.12061
G1 X108.027 Y122.81 E65.24222
G1 X108.309 Y121.833 E65.36424
G1 X108.512 Y120.839 E65.48598
G1 X108.632 Y119.847 E65.60589
G1 X108.678 Y118.688 E65.74508
G1 X108.678 Y103.978 E67.51028
G1 X108.632 Y102.819 E67.64947
G1 X108.512 Y101.83 E67.76902
G1 X108.309 Y100.832 E67.89123
G1 X108.025 Y99.851 E68.01379
G1 X107.671 Y98.913 E68.1341
G1 X107.236 Y97.993 E68.25622
G1 X106.738 Y97.125 E68.3763
G1 X106.148 Y96.269 E68.50106
G1 X105.341 Y95.277 E68.65451
G1 X104.887 Y94.656 E68.74682
G1 X104.5 Y93.991 E68.83915
G1 X104.184 Y93.29 E68.93142
G1 X103.942 Y92.56 E69.02371
G1 X103.778 Y91.808 E69.11607
G1 X103.692 Y91.044 E69.20833
G1 X103.679 Y90.604 E69.26116
G1 X103.679 Y60.605 E72.86104
G1 X103.719 Y59.837 E72.95332
G1 X103.838 Y59.077 E73.04563
G1 X104.036 Y58.334 E73.1379
G1 X104.31 Y57.615 E73.23024
G1 X104.657 Y56.929 E73.32249
G0 F3600 X105.056 Y57.039
G1 F1800 X105.471 Y56.416 E73.41232
G1 X105.95 Y55.842 E73.50203
G1 X106.487 Y55.321 E73.59181
G1 X107.077 Y54.862 E73.68152
G1 X107.713 Y54.467 E73.77136
G1 X108.387 Y54.143 E73.8611
G1 X109.092 Y53.893 E73.95086
G1 X109.82 Y53.719 E74.04068
G1 X110.562 Y53.624 E74.13045
G1 X111.079 Y53.605 E74.19253
G1 X136.078 Y53.605 E77.19241
G1 X136.825 Y53.645 E77.28218
G1 X137.563 Y53.764 E77.37188
G1 X138.285 Y53.962 E77.46172
G1 X138.981 Y54.235 E77.55143
G1 X139.644 Y54.582 E77.64123
G1 X140.267 Y54.997 E77.73106
G1 X140.841 Y55.476 E77.82077
G1 X141.362 Y56.013 E77.91056
G1 X141.821 Y56.603 E78.00026
G1 X142.216 Y57.239 E78.0901
G1 X142.54 Y57.913 E78.17984
G1 X142.79 Y58.618 E78.2696
G1 X142.964 Y59.346 E78.35942
G1 X143.059 Y60.088 E78.44919
G1 X143.078 Y60.605 E78.51127
G1 X143.078 Y90.604 E82.11115
G1 X143.038 Y91.351 E82.20092
G1 X142.919 Y92.089 E82.29062
G1 X142.721 Y92.811 E82.38046
G1 X142.448 Y93.507 E82.47018
G1 X142.101 Y94.17 E82.55998
G1 X141.504 Y95.027 E82.68531
G1 X140.685 Y96.031 E82.84079
G1 X140.081 Y96.912 E82.96897
G1 X139.566 Y97.806 E83.09278
G1 X139.115 Y98.763 E83.21973
G1 X138.75 Y99.728 E83.34354
G1 X138.46 Y100.733 E83.46906
G1 X138.251 Y101.758 E83.59459
G1 X138.126 Y102.795 E83.71993
G1 X138.078 Y103.969 E83.86093
G1 X138.078 Y118.698 E85.62841
G1 X138.126 Y119.874 E85.76965
G1 X138.251 Y120.906 E85.89439
G1 X138.461 Y121.94 E86.021
G1 X138.747 Y122.932 E86.14489
G1 X139.116 Y123.907 E86.26999
G1 X139.566 Y124.861 E86.39657
G1 X140.081 Y125.755 E86.52037
G1 X140.685 Y126.636 E86.64855
G1 X141.504 Y127.64 E86.80404
G1 X141.945 Y128.244 E86.89378
G1 X142.319 Y128.892 E86.98356
G1 X142.621 Y129.576 E87.07329
G1 X142.849 Y130.289 E87.16311
G1 X143 Y131.022 E87.25292
G1 X143.078 Y132.063 E87.37819
G1 X143.078 Y162.062 E90.97807
G1 X143.038 Y162.809 E91.06784
G1 X142.919 Y163.547 E91.15754
G1 X142.721 Y164.269 E91.24738
G1 X142.448 Y164.965 E91.3371
G1 X142.101 Y165.628 E91.4269
G1 X141.686 Y166.251 E91.51672
G1 X141.207 Y166.825 E91.60644
G1 X140.67 Y167.346 E91.69622
G1 X140.08 Y167.805 E91.78592
G1 X139.444 Y168.2 E91.87576
G1 X138.77 Y168.524 E91.9655
G1 X138.065 Y168.774 E92.05527
G1 X137.337 Y168.948 E92.14509
G1 X136.595 Y169.043 E92.23485
G1 X136.078 Y169.062 E92.29694
G1 X111.079 Y169.062 E95.29682
G1 X110.332 Y169.022 E95.38658
G1 X109.594 Y168.903 E95.47629
G1 X108.872 Y168.705 E95.56613
G1 X108.176 Y168.432 E95.65584
G1 X107.513 Y168.085 E95.74564
G1 X106.89 Y167.67 E95.83547
G1 X106.316 Y167.191 E95.92518
G1 X105.795 Y166.654 E96.01497
G1 X105.336 Y166.064 E96.10467
G1 X104.941 Y165.428 E96.19451
G1 X104.617 Y164.754 E96.28425
G1 X104.367 Y164.049 E96.37401
G1 X104.193 Y163.321 E96.46383
G1 X104.098 Y162.579 E96.5536
G1 X104.079 Y162.062 E96.61568
G1 X104.079 Y132.063 E100.21556
G1 X104.119 Y131.316 E100.30533
G1 X104.238 Y130.578 E100.39503
G1 X104.436 Y129.856 E100.48487
G1 X104.709 Y129.16 E100.57459
G1 X105.056 Y128.497 E100.66438
G1 X105.643 Y127.653 E100.78775
G1 X106.466 Y126.639 E100.94447
G1 X107.077 Y125.753 E101.07362
G1 X107.594 Y124.852 E101.19827
G1 X108.039 Y123.912 E101.32307
G1 X108.408 Y122.936 E101.44828
G1 X108.696 Y121.936 E101.57316
G1 X108.906 Y120.906 E101.6993
G1 X109.031 Y119.874 E101.82405
G1 X109.078 Y118.704 E101.96456
G1 X109.078 Y103.962 E103.7336
G1 X109.031 Y102.792 E103.87412
G1 X108.907 Y101.763 E103.99849
G1 X108.696 Y100.729 E104.12513
G1 X108.409 Y99.736 E104.24916
G1 X108.036 Y98.749 E104.37578
G1 X107.593 Y97.811 E104.50026
G1 X107.073 Y96.906 E104.62551
G1 X106.472 Y96.032 E104.75279
G1 X105.651 Y95.024 E104.9088
G1 X105.21 Y94.42 E104.99854
G1 X104.837 Y93.772 E105.08827
G1 X104.534 Y93.087 E105.17815
G1 X104.307 Y92.375 E105.26783
G1 X104.156 Y91.642 E105.35763
G1 X104.079 Y90.604 E105.48253
G1 X104.079 Y60.605 E109.08241
G1 X104.119 Y59.858 E109.17218
G1 X104.238 Y59.12 E109.26189
G1 X104.436 Y58.398 E109.35173
G1 X104.709 Y57.702 E109.44144
G1 X105.056 Y57.039 E109.53124
G0 F3600 X105.454 Y57.152
G1 F1800 X105.868 Y56.555 E109.61842
G1 X106.344 Y56.007 E109.70552
G1 X106.878 Y55.514 E109.79274
G1 X107.463 Y55.084 E109.87986
G1 X108.092 Y54.72 E109.96707
G1 X108.757 Y54.427 E110.05427
G1 X109.45 Y54.209 E110.14145
G1 X110.162 Y54.069 E110.22852
G1 X111.079 Y54.005 E110.33883
G1 X136.078 Y54.005 E113.33871
G1 X136.803 Y54.045 E113.42584
G1 X137.52 Y54.164 E113.51306
G1 X138.219 Y54.362 E113.60024
G1 X138.892 Y54.635 E113.68739
G1 X139.531 Y54.98 E113.77453
G1 X140.128 Y55.394 E113.86172
G1 X140.676 Y55.87 E113.94882
G1 X141.169 Y56.404 E114.03603
G1 X141.599 Y56.989 E114.12316
G1 X141.963 Y57.618 E114.21036
G1 X142.256 Y58.283 E114.29757
G1 X142.474 Y58.976 E114.38474
G1 X142.614 Y59.688 E114.47182
G1 X142.678 Y60.605 E114.58213
G1 X142.678 Y90.604 E118.18201
G1 X142.638 Y91.329 E118.26914
G1 X142.519 Y92.046 E118.35636
G1 X142.321 Y92.745 E118.44354
G1 X142.048 Y93.418 E118.53069
G1 X141.703 Y94.057 E118.61783
G1 X141.194 Y94.774 E118.72335
G1 X140.362 Y95.795 E118.8814
G1 X139.745 Y96.693 E119.01214
G1 X139.209 Y97.625 E119.14116
G1 X138.749 Y98.599 E119.27042
G1 X138.37 Y99.602 E119.39908
G1 X138.07 Y100.642 E119.52897
G1 X137.856 Y101.692 E119.65756
G1 X137.728 Y102.756 E119.78616
G1 X137.678 Y103.978 E119.93292
G1 X137.678 Y118.69 E121.69836
G1 X137.728 Y119.913 E121.84525
G1 X137.856 Y120.972 E121.97325
G1 X138.072 Y122.031 E122.10295
G1 X138.368 Y123.058 E122.2312
G1 X138.751 Y124.071 E122.36116
G1 X139.209 Y125.042 E122.48999
G1 X139.745 Y125.974 E122.61901
G1 X140.362 Y126.872 E122.74976
G1 X141.194 Y127.893 E122.9078
G1 X141.621 Y128.48 E122.99491
G1 X141.981 Y129.111 E123.08208
G1 X142.27 Y129.778 E123.16932
G1 X142.483 Y130.472 E123.25643
G1 X142.619 Y131.185 E123.34353
G1 X142.678 Y132.063 E123.44913
G1 X142.678 Y162.062 E127.04901
G1 X142.638 Y162.787 E127.13614
G1 X142.519 Y163.504 E127.22336
G1 X142.321 Y164.203 E127.31054
G1 X142.048 Y164.876 E127.39769
G1 X141.703 Y165.515 E127.48483
G1 X141.289 Y166.112 E127.57201
G1 X140.813 Y166.66 E127.65912
G1 X140.279 Y167.153 E127.74633
G1 X139.694 Y167.583 E127.83345
G1 X139.065 Y167.947 E127.92066
G1 X138.4 Y168.24 E128.00786
G1 X137.707 Y168.458 E128.09504
G1 X136.995 Y168.598 E128.18212
G1 X136.078 Y168.662 E128.29243
G1 X111.079 Y168.662 E131.29231
G1 X110.354 Y168.622 E131.37944
G1 X109.637 Y168.503 E131.46665
G1 X108.938 Y168.305 E131.55384
G1 X108.265 Y168.032 E131.64099
G1 X107.626 Y167.687 E131.72813
G1 X107.029 Y167.273 E131.81531
G1 X106.481 Y166.797 E131.90241
G1 X105.988 Y166.263 E131.98963
G1 X105.558 Y165.678 E132.07675
G1 X105.194 Y165.049 E132.16396
G1 X104.901 Y164.384 E132.25116
G1 X104.683 Y163.691 E132.33834
G1 X104.543 Y162.979 E132.42541
G1 X104.479 Y162.062 E132.53572
G1 X104.479 Y132.063 E136.1356
G1 X104.519 Y131.338 E136.22273
G1 X104.638 Y130.621 E136.30995
G1 X104.836 Y129.922 E136.39713
G1 X105.109 Y129.249 E136.48428
G1 X105.454 Y128.61 E136.57142
G1 X105.954 Y127.905 E136.67514
G1 X106.787 Y126.879 E136.83373
G1 X107.414 Y125.97 E136.96624
G1 X107.946 Y125.044 E137.0944
G1 X108.41 Y124.061 E137.22484
G1 X108.786 Y123.066 E137.35248
G1 X109.086 Y122.027 E137.48225
G1 X109.301 Y120.972 E137.61145
G1 X109.429 Y119.913 E137.73946
